;FLAVOR:Marlin
;TIME:8768
;Filament used: 8.46593m
;Layer height: 0.2
;MINX:8.19
;MINY:10.043
;MINZ:0.3
;MAXX:187.294
;MAXY:189.151
;MAXZ:16.9
;Generated with Cura_SteamEngine 4.3.0
M140 S60
M105
M190 S60
M104 S200
M105
M109 S200
M82 ;absolute extrusion mode
G21 ;metric values
 G90 ;absolute positioning
 M82 ;set extruder to absolute mode
 M107 ;start with the fan off
 G28 X0 Y0 ;move X/Y to min endstops
 G28 Z0 ;move Z to min endstops
 G1 Z15.0 F120 ;move the platform down 15mm
 G92 E0 ;zero the extruded length
 G1 F200 E6 ;extrude 6 mm of feed stock
 G92 E0 ;zero the extruded length again
 G1 F120 
 ;Put printing message on LCD screen
 M117 Printing...
G92 E0
G92 E0
G1 F1500 E-6.5
;LAYER_COUNT:84
;LAYER:0
M107
G0 F3600 X52.301 Y117.614 Z0.3
;TYPE:SKIRT
G1 F1500 E0
G1 F1800 X120.473 Y49.44 E4.80997
G1 X121.059 Y48.91 E4.84939
G1 X121.085 Y48.891 E4.851
G1 X121.287 Y48.643 E4.86696
G1 X121.562 Y48.353 E4.8869
G1 X157.585 Y12.328 E7.42858
G1 X158.171 Y11.798 E7.468
G1 X158.808 Y11.331 E7.50741
G1 X159.488 Y10.93 E7.54679
G1 X160.206 Y10.6 E7.58622
G1 X160.953 Y10.345 E7.6256
G1 X161.722 Y10.166 E7.66499
G1 X162.505 Y10.066 E7.70437
G1 X163.138 Y10.043 E7.73597
G1 X163.351 Y10.044 E7.7466
G1 X164.139 Y10.088 E7.78597
G1 X164.919 Y10.211 E7.82537
G1 X165.683 Y10.412 E7.86478
G1 X166.422 Y10.69 E7.90417
G1 X167.129 Y11.041 E7.94355
G1 X167.798 Y11.462 E7.98299
G1 X168.42 Y11.948 E8.02237
G1 X168.829 Y12.328 E8.05022
G1 X176.352 Y19.85 E8.58097
G1 X176.882 Y20.436 E8.62039
G1 X176.913 Y20.478 E8.623
G1 X177.195 Y20.708 E8.64115
G1 X177.489 Y20.987 E8.66137
G1 X178.523 Y22.022 E8.73436
G1 X185.009 Y28.506 E9.19192
G1 X185.538 Y29.092 E9.2313
G1 X186.006 Y29.728 E9.2707
G1 X186.406 Y30.408 E9.31006
G1 X186.736 Y31.126 E9.34948
G1 X186.992 Y31.873 E9.38888
G1 X187.171 Y32.642 E9.42827
G1 X187.271 Y33.425 E9.46765
G1 X187.294 Y34.059 E9.4993
G1 X187.293 Y34.272 E9.50993
G1 X187.249 Y35.06 E9.5493
G1 X187.126 Y35.84 E9.5887
G1 X186.925 Y36.604 E9.62811
G1 X186.647 Y37.343 E9.6675
G1 X186.296 Y38.05 E9.70688
G1 X185.875 Y38.719 E9.74632
G1 X185.389 Y39.341 E9.7857
G1 X185.008 Y39.75 E9.81358
G1 X148.984 Y75.774 E12.35527
G1 X148.398 Y76.304 E12.39469
G1 X148.384 Y76.314 E12.39555
G1 X148.174 Y76.572 E12.41215
G1 X147.897 Y76.863 E12.43219
G1 X79.724 Y145.036 E17.24216
G1 X79.138 Y145.566 E17.28158
G1 X79.12 Y145.579 E17.28269
G1 X78.914 Y145.833 E17.29901
G1 X78.636 Y146.124 E17.31908
G1 X47.989 Y176.771 E19.4814
G1 X47.893 Y177.107 E19.49883
G1 X47.601 Y177.841 E19.53824
G1 X47.236 Y178.541 E19.57763
G1 X46.802 Y179.201 E19.61703
G1 X46.303 Y179.813 E19.65643
G1 X46.025 Y180.106 E19.67658
G1 X41.04 Y185.089 E20.02823
G1 X40.273 Y185.761 E20.0791
G1 X39.015 Y186.726 E20.1582
G1 X38.365 Y187.174 E20.19759
G1 X37.673 Y187.554 E20.23698
G1 X37.253 Y187.743 E20.25995
G1 X35.783 Y188.352 E20.33934
G1 X35.039 Y188.617 E20.37874
G1 X34.273 Y188.805 E20.41809
G1 X33.82 Y188.879 E20.44099
G1 X32.238 Y189.088 E20.5206
G1 X31.45 Y189.151 E20.56004
G1 X30.661 Y189.135 E20.59941
G1 X30.199 Y189.088 E20.62258
G1 X28.633 Y188.882 E20.70138
G1 X27.856 Y188.74 E20.74079
G1 X27.098 Y188.52 E20.78017
G1 X26.681 Y188.362 E20.80241
G1 X25.211 Y187.757 E20.88172
G1 X24.497 Y187.42 E20.92111
G1 X23.821 Y187.012 E20.9605
G1 X23.45 Y186.746 E20.98328
G1 X22.182 Y185.779 E21.06284
G1 X21.579 Y185.269 E21.10224
G1 X21.031 Y184.701 E21.14161
G1 X20.734 Y184.338 E21.16501
G1 X19.76 Y183.074 E21.24462
G1 X19.31 Y182.425 E21.28402
G1 X18.928 Y181.734 E21.32342
G1 X18.738 Y181.314 E21.34641
G1 X18.127 Y179.848 E21.42565
G1 X17.963 Y179.388 E21.45002
G1 X17.555 Y179.234 E21.47177
G1 X16.084 Y178.629 E21.55113
G1 X15.37 Y178.292 E21.59052
G1 X14.693 Y177.884 E21.62995
G1 X14.319 Y177.615 E21.65293
G1 X13.052 Y176.648 E21.73245
G1 X12.449 Y176.138 E21.77185
G1 X11.901 Y175.57 E21.81123
G1 X11.607 Y175.211 E21.83438
G1 X10.633 Y173.948 E21.91395
G1 X10.183 Y173.299 E21.95335
G1 X9.801 Y172.608 E21.99274
G1 X9.61 Y172.184 E22.01594
G1 X8.999 Y170.717 E22.09523
G1 X8.732 Y169.974 E22.13462
G1 X8.542 Y169.207 E22.17404
G1 X8.469 Y168.759 E22.19668
G1 X8.256 Y167.178 E22.27627
G1 X8.19 Y166.391 E22.31568
G1 X8.204 Y165.602 E22.35504
G1 X8.25 Y165.14 E22.37821
G1 X8.456 Y163.542 E22.45859
G1 X8.596 Y162.765 E22.49798
G1 X8.815 Y162.006 E22.53739
G1 X8.985 Y161.556 E22.56139
G1 X9.593 Y160.087 E22.64071
G1 X9.931 Y159.374 E22.68008
G1 X10.34 Y158.698 E22.71949
G1 X10.611 Y158.323 E22.74258
G1 X11.575 Y157.066 E22.82161
G1 X12.247 Y156.299 E22.87248
G1 X17.232 Y151.312 E23.22427
G1 X17.818 Y150.782 E23.26369
G1 X18.455 Y150.315 E23.3031
G1 X19.135 Y149.914 E23.34248
G1 X19.852 Y149.584 E23.38186
G1 X20.579 Y149.335 E23.4202
G1 X51.214 Y118.702 E25.58159
G1 X51.8 Y118.173 E25.62098
G1 X51.817 Y118.161 E25.62202
G1 X52.026 Y117.904 E25.63854
G1 X52.301 Y117.614 E25.65848
G0 F3600 X52.584 Y117.896
G1 F1800 X120.756 Y49.722 E30.46846
G1 X121.328 Y49.208 E30.50682
G1 X121.349 Y49.193 E30.50811
G1 X121.845 Y48.636 E30.54532
G1 X157.868 Y12.611 E33.08701
G1 X158.44 Y12.096 E33.12541
G1 X159.061 Y11.643 E33.16376
G1 X159.727 Y11.257 E33.20216
G1 X160.429 Y10.942 E33.24055
G1 X161.159 Y10.702 E33.27888
G1 X161.911 Y10.539 E33.31727
G1 X162.676 Y10.455 E33.35567
G1 X163.136 Y10.443 E33.37863
G1 X163.349 Y10.444 E33.38925
G1 X164.117 Y10.488 E33.42763
G1 X164.876 Y10.611 E33.46599
G1 X165.618 Y10.812 E33.50434
G1 X166.336 Y11.089 E33.54274
G1 X167.021 Y11.439 E33.58112
G1 X167.665 Y11.859 E33.61947
G1 X168.263 Y12.343 E33.65786
G1 X168.546 Y12.611 E33.6773
G1 X176.069 Y20.133 E34.20805
G1 X176.584 Y20.704 E34.24642
G1 X176.608 Y20.736 E34.24841
G1 X177.206 Y21.27 E34.28841
G1 X178.24 Y22.305 E34.3614
G1 X184.726 Y28.789 E34.81895
G1 X185.241 Y29.36 E34.85731
G1 X185.694 Y29.982 E34.8957
G1 X186.08 Y30.647 E34.93406
G1 X186.394 Y31.349 E34.97243
G1 X186.634 Y32.079 E35.01077
G1 X186.798 Y32.831 E35.04917
G1 X186.882 Y33.596 E35.08756
G1 X186.894 Y34.057 E35.11057
G1 X186.893 Y34.27 E35.1212
G1 X186.849 Y35.038 E35.15958
G1 X186.726 Y35.797 E35.19794
G1 X186.525 Y36.539 E35.23629
G1 X186.248 Y37.257 E35.27468
G1 X185.898 Y37.942 E35.31306
G1 X185.478 Y38.586 E35.35142
G1 X184.994 Y39.184 E35.3898
G1 X184.726 Y39.468 E35.40928
G1 X148.702 Y75.492 E37.95097
G1 X148.13 Y76.006 E37.98934
G1 X148.12 Y76.013 E37.98995
G1 X147.615 Y76.581 E38.02786
G1 X79.442 Y144.754 E42.83784
G1 X78.87 Y145.268 E42.8762
G1 X78.855 Y145.279 E42.87713
G1 X78.354 Y145.842 E42.91473
G1 X47.64 Y176.556 E45.08177
G1 X47.441 Y177.185 E45.11468
G1 X47.134 Y177.89 E45.15305
G1 X46.755 Y178.56 E45.19145
G1 X46.309 Y179.187 E45.22984
G1 X45.743 Y179.823 E45.27231
G1 X40.758 Y184.806 E45.62396
G1 X40.03 Y185.443 E45.67222
G1 X38.772 Y186.408 E45.75132
G1 X38.138 Y186.844 E45.78971
G1 X37.463 Y187.212 E45.82807
G1 X37.1 Y187.374 E45.8479
G1 X35.63 Y187.983 E45.92728
G1 X34.905 Y188.24 E45.96566
G1 X34.158 Y188.42 E46.00399
G1 X33.767 Y188.482 E46.02374
G1 X32.185 Y188.691 E46.10335
G1 X31.418 Y188.752 E46.14174
G1 X30.65 Y188.733 E46.18007
G1 X30.251 Y188.692 E46.20008
G1 X28.685 Y188.486 E46.27888
G1 X27.929 Y188.346 E46.31724
G1 X26.834 Y187.992 E46.37465
G1 X25.364 Y187.387 E46.45396
G1 X24.669 Y187.058 E46.49232
G1 X24.011 Y186.658 E46.53074
G1 X23.693 Y186.428 E46.55032
G1 X22.425 Y185.461 E46.62988
G1 X21.838 Y184.964 E46.66825
G1 X21.306 Y184.408 E46.70664
G1 X21.05 Y184.094 E46.72685
G1 X20.076 Y182.83 E46.80646
G1 X19.639 Y182.197 E46.84484
G1 X19.27 Y181.522 E46.88322
G1 X19.108 Y181.16 E46.90301
G1 X18.497 Y179.694 E46.98224
G1 X18.265 Y179.044 E47.01668
G1 X17.707 Y178.864 E47.04593
G1 X16.236 Y178.259 E47.12528
G1 X15.541 Y177.93 E47.16364
G1 X14.884 Y177.53 E47.20202
G1 X14.561 Y177.297 E47.22189
G1 X13.294 Y176.33 E47.3014
G1 X12.708 Y175.833 E47.33974
G1 X12.177 Y175.277 E47.3781
G1 X11.924 Y174.967 E47.39806
G1 X10.95 Y173.704 E47.47763
G1 X10.513 Y173.071 E47.51601
G1 X10.143 Y172.397 E47.55437
G1 X9.979 Y172.03 E47.57442
G1 X9.368 Y170.563 E47.6537
G1 X9.109 Y169.839 E47.69207
G1 X8.928 Y169.091 E47.73046
G1 X8.865 Y168.706 E47.74992
G1 X8.652 Y167.125 E47.82951
G1 X8.589 Y166.358 E47.86791
G1 X8.606 Y165.589 E47.90628
G1 X8.647 Y165.191 E47.92624
G1 X8.853 Y163.593 E48.00663
G1 X8.991 Y162.836 E48.04502
G1 X9.206 Y162.098 E48.08337
G1 X9.355 Y161.709 E48.10415
G1 X9.963 Y160.24 E48.18347
G1 X10.293 Y159.546 E48.22181
G1 X10.694 Y158.889 E48.26021
G1 X10.928 Y158.567 E48.28007
G1 X11.892 Y157.31 E48.3591
G1 X12.53 Y156.581 E48.40743
G1 X17.515 Y151.594 E48.75922
G1 X18.087 Y151.079 E48.79762
G1 X18.708 Y150.627 E48.83594
G1 X19.374 Y150.241 E48.87434
G1 X20.075 Y149.926 E48.91268
G1 X20.788 Y149.692 E48.95012
G1 X51.497 Y118.985 E51.11674
G1 X52.068 Y118.47 E51.1551
G1 X52.083 Y118.459 E51.15603
G1 X52.584 Y117.896 E51.19363
G0 F3600 X52.867 Y118.179
G1 F1800 X121.039 Y50.005 E56.0036
G1 X121.596 Y49.505 E56.04094
G1 X121.641 Y49.472 E56.04373
G1 X121.777 Y49.297 E56.05478
G1 X122.128 Y48.918 E56.08055
G1 X158.151 Y12.893 E58.62224
G1 X158.708 Y12.393 E58.65958
G1 X159.314 Y11.956 E58.69686
G1 X159.964 Y11.585 E58.7342
G1 X160.65 Y11.286 E58.77153
G1 X161.363 Y11.062 E58.80882
G1 X162.097 Y10.915 E58.84616
G1 X163.134 Y10.843 E58.89803
G1 X163.347 Y10.844 E58.90865
G1 X164.094 Y10.888 E58.94598
G1 X164.832 Y11.01 E58.9833
G1 X165.552 Y11.211 E59.0206
G1 X166.247 Y11.488 E59.05792
G1 X166.909 Y11.837 E59.09526
G1 X167.529 Y12.255 E59.13257
G1 X168.263 Y12.894 E59.18112
G1 X175.786 Y20.416 E59.71187
G1 X176.286 Y20.972 E59.74918
G1 X176.333 Y21.037 E59.75318
G1 X176.541 Y21.198 E59.7663
G1 X176.923 Y21.553 E59.79232
G1 X177.957 Y22.587 E59.86527
G1 X184.443 Y29.071 E60.32282
G1 X184.943 Y29.628 E60.36017
G1 X185.381 Y30.234 E60.39747
G1 X185.751 Y30.884 E60.43478
G1 X186.05 Y31.57 E60.47212
G1 X186.275 Y32.284 E60.50947
G1 X186.422 Y33.017 E60.54676
G1 X186.494 Y34.055 E60.59868
G1 X186.493 Y34.268 E60.6093
G1 X186.449 Y35.015 E60.64663
G1 X186.327 Y35.753 E60.68395
G1 X186.126 Y36.473 E60.72125
G1 X185.849 Y37.168 E60.75857
G1 X185.5 Y37.83 E60.79591
G1 X185.082 Y38.45 E60.83322
G1 X184.443 Y39.185 E60.8818
G1 X148.419 Y75.209 E63.42349
G1 X147.862 Y75.709 E63.46084
G1 X147.825 Y75.736 E63.46312
G1 X147.684 Y75.918 E63.47461
G1 X147.332 Y76.298 E63.50045
G1 X79.159 Y144.471 E68.31042
G1 X78.602 Y144.971 E68.34776
G1 X78.561 Y145 E68.35027
G1 X78.423 Y145.179 E68.36155
G1 X78.071 Y145.559 E68.38739
G1 X47.277 Y176.353 E70.56007
G1 X47.231 Y176.549 E70.57012
G1 X46.984 Y177.255 E70.60743
G1 X46.662 Y177.93 E70.64474
G1 X46.27 Y178.568 E70.6821
G1 X45.813 Y179.159 E70.71937
G1 X45.46 Y179.54 E70.74529
G1 X40.475 Y184.523 E71.09693
G1 X39.787 Y185.126 E71.14258
G1 X38.529 Y186.091 E71.22168
G1 X37.911 Y186.514 E71.25904
G1 X36.947 Y187.004 E71.31299
G1 X35.477 Y187.613 E71.39237
G1 X34.772 Y187.862 E71.42968
G1 X33.715 Y188.086 E71.48358
G1 X32.133 Y188.295 E71.56319
G1 X31.387 Y188.353 E71.60052
G1 X30.303 Y188.295 E71.65468
G1 X28.737 Y188.089 E71.73348
G1 X28.002 Y187.952 E71.77078
G1 X26.986 Y187.622 E71.82408
G1 X25.516 Y187.017 E71.90339
G1 X24.84 Y186.696 E71.94072
G1 X23.935 Y186.11 E71.99451
G1 X22.667 Y185.143 E72.07407
G1 X22.097 Y184.658 E72.11141
G1 X21.367 Y183.85 E72.16573
G1 X20.393 Y182.586 E72.24534
G1 X19.969 Y181.97 E72.28265
G1 X19.477 Y181.006 E72.33665
G1 X18.866 Y179.54 E72.41589
G1 X18.615 Y178.835 E72.45322
G1 X18.593 Y178.732 E72.45848
G1 X17.859 Y178.494 E72.49697
G1 X16.388 Y177.889 E72.57633
G1 X15.713 Y177.568 E72.61362
G1 X14.804 Y176.979 E72.66765
G1 X13.537 Y176.012 E72.74717
G1 X12.968 Y175.528 E72.78444
G1 X12.241 Y174.723 E72.83855
G1 X11.267 Y173.46 E72.91813
G1 X10.842 Y172.844 E72.95546
G1 X10.348 Y171.876 E73.00968
G1 X9.737 Y170.409 E73.08897
G1 X9.487 Y169.704 E73.12628
G1 X9.262 Y168.653 E73.17991
G1 X9.049 Y167.072 E73.2595
G1 X8.989 Y166.326 E73.29683
G1 X9.043 Y165.242 E73.35098
G1 X9.249 Y163.644 E73.43137
G1 X9.385 Y162.908 E73.46871
G1 X9.724 Y161.862 E73.52357
G1 X10.332 Y160.393 E73.60288
G1 X10.655 Y159.718 E73.64022
G1 X11.245 Y158.81 E73.69424
G1 X12.209 Y157.553 E73.77327
G1 X12.813 Y156.864 E73.81898
G1 X17.798 Y151.877 E74.17077
G1 X18.355 Y151.377 E74.20811
G1 X18.961 Y150.939 E74.24542
G1 X19.611 Y150.569 E74.28273
G1 X20.297 Y150.27 E74.32007
G1 X20.996 Y150.05 E74.35663
G1 X51.779 Y119.268 E76.5285
G1 X52.336 Y118.768 E76.56584
G1 X52.374 Y118.741 E76.56817
G1 X52.516 Y118.557 E76.57976
G1 X52.867 Y118.179 E76.6055
G0 F3600 X53.15 Y118.462
G1 F1800 X121.322 Y50.288 E81.41547
G1 X121.863 Y49.804 E81.45169
G1 X121.927 Y49.758 E81.45562
G1 X122.411 Y49.201 E81.49243
G1 X158.434 Y13.176 E84.03412
G1 X158.975 Y12.692 E84.07034
G1 X159.566 Y12.269 E84.1066
G1 X160.2 Y11.915 E84.14282
G1 X160.869 Y11.632 E84.17906
G1 X161.565 Y11.424 E84.2153
G1 X162.28 Y11.294 E84.25156
G1 X163.132 Y11.243 E84.29414
G1 X163.345 Y11.244 E84.30477
G1 X164.07 Y11.287 E84.341
G1 X164.786 Y11.41 E84.37725
G1 X165.484 Y11.611 E84.41349
G1 X166.156 Y11.887 E84.44973
G1 X166.793 Y12.236 E84.48597
G1 X167.388 Y12.652 E84.52219
G1 X167.981 Y13.177 E84.5617
G1 X175.504 Y20.699 E85.09245
G1 X175.988 Y21.24 E85.12867
G1 X176.041 Y21.314 E85.13321
G1 X176.64 Y21.835 E85.17282
G1 X177.674 Y22.87 E85.24581
G1 X184.16 Y29.354 E85.70336
G1 X184.645 Y29.895 E85.73961
G1 X185.067 Y30.486 E85.77584
G1 X185.422 Y31.12 E85.81209
G1 X185.705 Y31.789 E85.84833
G1 X185.913 Y32.485 E85.88457
G1 X186.043 Y33.2 E85.92083
G1 X186.094 Y34.053 E85.96346
G1 X186.093 Y34.266 E85.97409
G1 X186.05 Y34.991 E86.01032
G1 X185.927 Y35.707 E86.04656
G1 X185.726 Y36.405 E86.0828
G1 X185.45 Y37.077 E86.11905
G1 X185.101 Y37.714 E86.15528
G1 X184.685 Y38.309 E86.1915
G1 X184.16 Y38.902 E86.23102
G1 X148.136 Y74.926 E88.77271
G1 X147.595 Y75.41 E88.80892
G1 X147.541 Y75.448 E88.81222
G1 X147.049 Y76.015 E88.84967
G1 X78.876 Y144.188 E93.65964
G1 X78.335 Y144.672 E93.69586
G1 X78.276 Y144.714 E93.69947
G1 X77.788 Y145.276 E93.7366
G1 X46.915 Y176.149 E95.91486
G1 X46.785 Y176.638 E95.9401
G1 X46.522 Y177.315 E95.97634
G1 X46.186 Y177.959 E96.01258
G1 X45.781 Y178.562 E96.04882
G1 X45.177 Y179.257 E96.09476
G1 X40.192 Y184.24 E96.4464
G1 X39.543 Y184.809 E96.48946
G1 X38.285 Y185.774 E96.56856
G1 X37.685 Y186.183 E96.60479
G1 X36.794 Y186.634 E96.65461
G1 X35.324 Y187.243 E96.734
G1 X34.639 Y187.484 E96.77023
G1 X33.662 Y187.689 E96.82003
G1 X32.08 Y187.898 E96.89964
G1 X31.356 Y187.954 E96.93587
G1 X30.355 Y187.899 E96.98589
G1 X28.789 Y187.693 E97.06469
G1 X28.075 Y187.558 E97.10094
G1 X27.138 Y187.252 E97.15012
G1 X25.668 Y186.647 E97.22942
G1 X25.013 Y186.334 E97.26564
G1 X24.178 Y185.792 E97.31531
G1 X22.91 Y184.825 E97.39486
G1 X22.357 Y184.353 E97.43114
G1 X21.684 Y183.605 E97.48134
G1 X20.71 Y182.341 E97.56095
G1 X20.299 Y181.743 E97.59715
G1 X19.846 Y180.852 E97.64702
G1 X19.235 Y179.386 E97.72625
G1 X18.993 Y178.701 E97.7625
G1 X18.934 Y178.425 E97.77658
G1 X18.012 Y178.124 E97.82497
G1 X16.541 Y177.519 E97.90432
G1 X15.885 Y177.206 E97.94058
G1 X15.047 Y176.662 E97.99043
G1 X13.78 Y175.695 E98.06994
G1 X13.227 Y175.223 E98.10622
G1 X12.558 Y174.478 E98.15617
G1 X11.584 Y173.215 E98.23574
G1 X11.172 Y172.617 E98.27197
G1 X10.717 Y171.723 E98.32202
G1 X10.106 Y170.256 E98.4013
G1 X9.864 Y169.571 E98.43755
G1 X9.658 Y168.599 E98.48712
G1 X9.445 Y167.018 E98.56671
G1 X9.388 Y166.294 E98.60294
G1 X9.44 Y165.293 E98.65295
G1 X9.646 Y163.695 E98.73333
G1 X9.779 Y162.981 E98.76957
G1 X10.094 Y162.015 E98.82026
G1 X10.702 Y160.546 E98.89957
G1 X11.016 Y159.891 E98.93581
G1 X11.563 Y159.054 E98.9857
G1 X12.527 Y157.797 E99.06473
G1 X13.096 Y157.147 E99.10783
G1 X18.081 Y152.16 E99.45962
G1 X18.622 Y151.675 E99.49587
G1 X19.213 Y151.253 E99.5321
G1 X19.847 Y150.898 E99.56835
G1 X20.516 Y150.615 E99.60459
G1 X21.201 Y150.41 E99.64026
G1 X52.062 Y119.551 E101.8176
G1 X52.603 Y119.066 E101.85385
G1 X52.662 Y119.024 E101.85746
G1 X53.15 Y118.462 E101.89459
G0 F3600 X53.433 Y118.745
G1 F1800 X121.605 Y50.571 E106.70457
G1 X122.13 Y50.102 E106.73969
G1 X122.202 Y50.051 E106.74409
G1 X122.303 Y49.914 E106.75258
G1 X122.694 Y49.484 E106.78158
G1 X158.717 Y13.459 E109.32327
