;FLAVOR:Marlin
;TIME:966
;Filament used: 1.12476m
;Layer height: 0.3
;MINX:65.612
;MINY:83.686
;MINZ:0.3
;MAXX:151.238
;MAXY:118.514
;MAXZ:9.9
;Generated with Cura_SteamEngine 4.3.0
M140 S60
M105
M190 S60
M104 S200
M105
M109 S200
M82 ;absolute extrusion mode
G21 ;metric values
 G90 ;absolute positioning
 M82 ;set extruder to absolute mode
 M107 ;start with the fan off
 G28 X0 Y0 ;move X/Y to min endstops
 G28 Z0 ;move Z to min endstops
 G1 Z15.0 F120 ;move the platform down 15mm
 G92 E0 ;zero the extruded length
 G1 F200 E6 ;extrude 6 mm of feed stock
 G92 E0 ;zero the extruded length again
 G1 F120 
 ;Put printing message on LCD screen
 M117 Printing...
G92 E0
G92 E0
G1 F1500 E-6.5
;LAYER_COUNT:33
;LAYER:0
M107
;MESH:Smashing Blorr-Elzing (2).stl
G0 F3600 X148.061 Y89.067 Z0.3
;TYPE:WALL-INNER
G1 F1500 E0
G1 F1800 X147.848 Y88.29 E0.04019
G1 X147.283 Y87.589 E0.08511
G1 X146.407 Y87.091 E0.13539
G1 X145.194 Y86.877 E0.19684
G1 X144.182 Y87.035 E0.24794
G1 X143.428 Y87.389 E0.28949
G1 X141.385 Y87.389 E0.39142
G1 X141.292 Y87.378 E0.39609
G1 X140.629 Y87.046 E0.43308
G1 X139.622 Y86.89 E0.48392
G1 X138.548 Y87.032 E0.53797
G1 X137.815 Y87.377 E0.57839
G1 X137.71 Y87.389 E0.58366
G1 X135.675 Y87.389 E0.68519
G1 X135.052 Y87.077 E0.71995
G1 X133.991 Y86.889 E0.77371
G1 X132.909 Y87.032 E0.82816
G1 X132.151 Y87.389 E0.86996
G1 X130.034 Y87.389 E0.97558
G1 X129.412 Y87.077 E1.01029
G1 X128.352 Y86.889 E1.064
G1 X127.27 Y87.032 E1.11845
G1 X126.512 Y87.389 E1.16026
G1 X124.395 Y87.389 E1.26587
G1 X123.712 Y87.047 E1.30398
G1 X122.707 Y86.891 E1.35472
G1 X121.631 Y87.031 E1.40886
G1 X120.871 Y87.389 E1.45077
G1 X118.757 Y87.389 E1.55624
G1 X118.133 Y87.077 E1.59104
G1 X116.997 Y86.877 E1.64859
G1 X115.986 Y87.035 E1.69964
G1 X115.258 Y87.377 E1.73977
G1 X115.153 Y87.389 E1.74504
G1 X113.118 Y87.389 E1.84657
G1 X112.494 Y87.077 E1.88137
G1 X111.359 Y86.877 E1.93887
G1 X110.294 Y87.04 E1.99262
G1 X109.615 Y87.37 E2.03029
G1 X107.589 Y87.393 E2.13137
G1 X106.991 Y87.115 E2.16427
G1 X105.985 Y86.948 E2.21515
G1 X104.898 Y87.094 E2.26987
G1 X104.158 Y87.449 E2.31081
G1 X104.051 Y87.462 E2.31619
G1 X101.988 Y87.462 E2.41911
G1 X101.362 Y87.142 E2.45419
G1 X100.286 Y86.949 E2.50873
G1 X99.189 Y87.094 E2.56393
G1 X98.449 Y87.449 E2.60488
G1 X98.342 Y87.462 E2.61026
G1 X96.279 Y87.462 E2.71318
G1 X95.591 Y87.11 E2.75174
G1 X94.57 Y86.95 E2.8033
G1 X93.481 Y87.094 E2.8581
G1 X92.717 Y87.462 E2.90041
G1 X90.572 Y87.462 E3.00742
G1 X89.946 Y87.142 E3.0425
G1 X88.87 Y86.949 E3.09704
G1 X87.773 Y87.094 E3.15224
G1 X87.01 Y87.462 E3.1945
G1 X84.863 Y87.462 E3.30162
G1 X84.175 Y87.11 E3.34017
G1 X83.154 Y86.95 E3.39173
G1 X82.065 Y87.094 E3.44654
G1 X81.302 Y87.462 E3.4888
G1 X79.154 Y87.462 E3.59596
G1 X78.467 Y87.11 E3.63448
G1 X77.448 Y86.95 E3.68594
G1 X76.357 Y87.094 E3.74084
G1 X75.589 Y87.462 E3.78333
G1 X73.522 Y87.462 E3.88645
G1 X73.424 Y87.45 E3.89138
G1 X72.759 Y87.11 E3.92864
G1 X71.662 Y86.937 E3.98404
G1 X70.51 Y87.117 E4.04221
G1 X69.676 Y87.565 E4.08945
G1 X69.02 Y88.291 E4.13826
G1 X68.792 Y89.112 E4.18077
G1 X68.952 Y89.845 E4.2182
G1 X69.256 Y90.252 E4.24355
G1 X69.263 Y90.316 E4.24676
G1 X69.263 Y92.774 E4.36939
G1 X68.946 Y93.201 E4.39592
G1 X68.806 Y93.953 E4.43408
G1 X68.954 Y94.627 E4.46851
G1 X69.271 Y95.049 E4.49484
G1 X69.271 Y97.518 E4.61802
G1 X69.265 Y97.58 E4.62113
G1 X68.948 Y98 E4.64738
G1 X68.803 Y98.769 E4.68642
G1 X68.988 Y99.479 E4.72303
G1 X69.271 Y99.856 E4.74655
G1 X69.271 Y102.376 E4.87227
G1 X68.948 Y102.806 E4.8991
G1 X68.803 Y103.574 E4.93809
G1 X68.988 Y104.284 E4.9747
G1 X69.271 Y104.661 E4.99822
G1 X69.271 Y107.184 E5.12409
G1 X68.989 Y107.558 E5.14746
G1 X68.79 Y108.323 E5.18689
G1 X68.988 Y109.088 E5.22632
G1 X69.271 Y109.465 E5.24983
G1 X69.271 Y111.935 E5.37306
G1 X69.265 Y111.998 E5.37622
G1 X68.954 Y112.411 E5.40201
G1 X68.792 Y113.145 E5.43951
G1 X69.001 Y113.908 E5.47898
G1 X69.602 Y114.652 E5.5267
G1 X70.499 Y115.138 E5.5776
G1 X71.567 Y115.309 E5.63156
G1 X72.737 Y115.157 E5.69042
G1 X73.406 Y114.823 E5.72773
G1 X73.503 Y114.811 E5.7326
G1 X75.538 Y114.811 E5.83413
G1 X76.22 Y115.154 E5.87221
G1 X77.301 Y115.322 E5.92679
G1 X78.383 Y115.154 E5.98142
G1 X79.067 Y114.811 E6.0196
G1 X81.175 Y114.811 E6.12476
G1 X81.799 Y115.123 E6.15957
G1 X82.935 Y115.323 E6.21712
G1 X84.023 Y115.154 E6.27205
G1 X84.704 Y114.811 E6.31009
G1 X86.814 Y114.811 E6.41536
G1 X87.498 Y115.154 E6.45353
G1 X88.58 Y115.322 E6.50816
G1 X89.586 Y115.165 E6.55896
G1 X90.338 Y114.811 E6.60043
G1 X92.453 Y114.811 E6.70594
G1 X93.137 Y115.154 E6.74412
G1 X94.219 Y115.322 E6.79875
G1 X95.301 Y115.154 E6.85337
G1 X95.985 Y114.811 E6.89155
G1 X98.091 Y114.811 E6.99662
G1 X98.715 Y115.123 E7.03142
G1 X99.852 Y115.323 E7.08902
G1 X100.939 Y115.154 E7.1439
G1 X101.601 Y114.823 E7.18083
G1 X101.699 Y114.811 E7.18575
G1 X103.732 Y114.811 E7.28718
G1 X104.356 Y115.123 E7.32199
G1 X105.491 Y115.323 E7.37948
G1 X106.481 Y115.173 E7.42944
G1 X107.227 Y114.83 E7.4704
G1 X109.192 Y114.808 E7.56844
G1 X109.284 Y114.817 E7.57306
G1 X109.917 Y115.113 E7.60792
G1 X110.941 Y115.263 E7.65955
G1 X112.035 Y115.09 E7.71481
G1 X112.722 Y114.738 E7.75332
G1 X114.786 Y114.738 E7.85629
G1 X114.885 Y114.75 E7.86127
G1 X115.55 Y115.09 E7.89853
G1 X116.572 Y115.25 E7.95014
G1 X117.737 Y115.093 E8.00879
G1 X118.43 Y114.738 E8.04763
G1 X120.493 Y114.738 E8.15056
G1 X120.592 Y114.75 E8.15553
G1 X121.257 Y115.09 E8.19279
G1 X122.354 Y115.263 E8.2482
G1 X123.451 Y115.09 E8.30361
G1 X124.138 Y114.738 E8.34212
G1 X126.278 Y114.738 E8.44888
G1 X126.905 Y115.058 E8.484
G1 X128.057 Y115.265 E8.5424
G1 X129.16 Y115.09 E8.59811
G1 X129.823 Y114.75 E8.63529
G1 X129.925 Y114.738 E8.64041
G1 X131.987 Y114.738 E8.74328
G1 X132.612 Y115.058 E8.77832
G1 X133.764 Y115.265 E8.83671
G1 X134.867 Y115.09 E8.89243
G1 X135.556 Y114.738 E8.93103
G1 X137.618 Y114.738 E9.0339
G1 X137.717 Y114.75 E9.03888
G1 X138.382 Y115.09 E9.07614
G1 X139.479 Y115.263 E9.13154
G1 X140.576 Y115.09 E9.18695
G1 X141.24 Y114.751 E9.22414
G1 X141.343 Y114.738 E9.22932
G1 X143.403 Y114.738 E9.3321
G1 X144.091 Y115.09 E9.37065
G1 X145.188 Y115.263 E9.42606
G1 X146.34 Y115.083 E9.48423
G1 X147.237 Y114.599 E9.53508
G1 X147.791 Y113.948 E9.57773
G1 X148.045 Y113.154 E9.61932
G1 X147.905 Y112.365 E9.6593
G1 X147.592 Y111.947 E9.68535
G1 X147.585 Y111.88 E9.68871
G1 X147.585 Y109.427 E9.81109
G1 X147.897 Y109.008 E9.83715
G1 X148.057 Y108.28 E9.87434
G1 X147.861 Y107.526 E9.91321
G1 X147.577 Y107.15 E9.93672
G1 X147.577 Y104.629 E10.06249
G1 X147.895 Y104.209 E10.08877
G1 X148.055 Y103.487 E10.12567
G1 X147.895 Y102.766 E10.16251
G1 X147.584 Y102.354 E10.18827
G1 X147.577 Y102.288 E10.19158
G1 X147.577 Y99.824 E10.31451
G1 X147.859 Y99.449 E10.33792
G1 X148.058 Y98.694 E10.37687
G1 X147.895 Y97.961 E10.41433
G1 X147.577 Y97.539 E10.44069
G1 X147.577 Y95.017 E10.56652
G1 X147.859 Y94.642 E10.58993
G1 X148.058 Y93.887 E10.62888
G1 X147.895 Y93.154 E10.66634
G1 X147.584 Y92.744 E10.69202
G1 X147.577 Y92.678 E10.69533
G1 X147.577 Y90.212 E10.81836
G1 X147.859 Y89.837 E10.84176
G1 X148.061 Y89.067 E10.88148
G0 F3600 X148.161 Y89.067
G0 X150.021 Y110.682
G0 X150.121 Y110.682
G1 F1800 X150.67 Y111.992 E10.95234
G1 X150.821 Y112.998 E11.00309
G1 X150.725 Y114.032 E11.0549
G1 X150.406 Y114.98 E11.10481
G1 X149.885 Y115.836 E11.1548
G1 X149.197 Y116.573 E11.2051
G1 X148.291 Y117.23 E11.26093
G1 X147.33 Y117.677 E11.31381
G1 X146.285 Y117.958 E11.3678
G1 X145.204 Y118.053 E11.42194
G1 X143.866 Y117.875 E11.48928
G1 X142.334 Y117.314 E11.57067
G1 X140.798 Y117.876 E11.65227
G1 X139.479 Y118.052 E11.71866
G1 X138.16 Y117.876 E11.78505
G1 X136.623 Y117.314 E11.8667
G1 X135.193 Y117.837 E11.94266
G1 X133.832 Y118.04 E12.01131
G1 X133.7 Y118.041 E12.0179
G1 X132.448 Y117.875 E12.08091
G1 X130.916 Y117.314 E12.1623
G1 X129.486 Y117.837 E12.23827
G1 X128.125 Y118.04 E12.30692
G1 X127.993 Y118.041 E12.31351
G1 X126.741 Y117.875 E12.37652
G1 X125.209 Y117.314 E12.45791
G1 X123.673 Y117.876 E12.53951
G1 X122.354 Y118.052 E12.6059
G1 X121.034 Y117.876 E12.67234
G1 X119.498 Y117.314 E12.75394
G1 X117.962 Y117.876 E12.83554
G1 X116.647 Y118.052 E12.90173
G1 X115.327 Y117.876 E12.96816
G1 X113.791 Y117.314 E13.04976
G1 X112.254 Y117.876 E13.13141
G1 X110.936 Y118.052 E13.19775
G1 X109.714 Y117.901 E13.25918
G1 X108.273 Y117.416 E13.33503
G1 X106.787 Y117.944 E13.41371
G1 X105.499 Y118.11 E13.4785
G1 X104.295 Y117.952 E13.53908
G1 X102.675 Y117.393 E13.62458
G1 X101.269 Y117.902 E13.69918
G1 X99.852 Y118.109 E13.77063
G1 X98.654 Y117.953 E13.8309
G1 X97.032 Y117.393 E13.91651
G1 X95.628 Y117.901 E13.991
G1 X94.214 Y118.109 E14.0623
G1 X92.912 Y117.937 E14.12783
G1 X91.4 Y117.391 E14.20803
G1 X89.99 Y117.902 E14.28285
G1 X88.575 Y118.109 E14.3542
G1 X87.272 Y117.937 E14.41977
G1 X85.76 Y117.391 E14.49997
G1 X84.351 Y117.9 E14.57471
G1 X83.002 Y118.1 E14.64275
G1 X82.87 Y118.101 E14.64933
G1 X81.633 Y117.937 E14.71159
G1 X80.121 Y117.391 E14.79179
G1 X78.609 Y117.937 E14.87199
G1 X77.301 Y118.11 E14.93781
G1 X75.993 Y117.938 E15.00363
G1 X74.482 Y117.393 E15.08377
G1 X73.074 Y117.902 E15.15847
G1 X71.645 Y118.112 E15.23052
G1 X70.539 Y118.012 E15.28593
G1 X69.493 Y117.727 E15.34002
G1 X68.539 Y117.279 E15.3926
G1 X67.691 Y116.676 E15.44451
G1 X66.997 Y115.953 E15.49451
G1 X66.469 Y115.111 E15.54409
G1 X66.132 Y114.168 E15.59405
G1 X66.015 Y113.143 E15.64552
G1 X66.166 Y112.135 E15.69637
G1 X66.734 Y110.72 E15.77244
G1 X66.215 Y109.486 E15.83923
G1 X66.018 Y108.32 E15.89823
G1 X66.166 Y107.329 E15.94822
G1 X66.734 Y105.915 E16.02424
G1 X66.215 Y104.68 E16.09107
G1 X66.018 Y103.516 E16.14997
G1 X66.166 Y102.524 E16.20001
G1 X66.734 Y101.11 E16.27603
G1 X66.182 Y99.797 E16.34709
G1 X66.018 Y98.712 E16.40184
G1 X66.166 Y97.719 E16.45193
G1 X66.734 Y96.304 E16.528
G1 X66.215 Y95.069 E16.59483
G1 X66.018 Y93.906 E16.65368
G1 X66.165 Y92.918 E16.70351
G1 X66.727 Y91.514 E16.77896
G1 X66.212 Y90.284 E16.84549
G1 X66.029 Y89.202 E16.90024
G1 X66.124 Y88.17 E16.95194
G1 X66.473 Y87.141 E17.00615
G1 X67.005 Y86.3 E17.0558
G1 X67.704 Y85.573 E17.10612
G1 X68.555 Y84.971 E17.15812
G1 X69.443 Y84.558 E17.20698
G1 X70.478 Y84.267 E17.26062
G1 X71.566 Y84.156 E17.31518
G1 X72.882 Y84.311 E17.38129
G1 X74.522 Y84.884 E17.46796
G1 X76.053 Y84.324 E17.54929
G1 X77.368 Y84.148 E17.61548
G1 X78.59 Y84.31 E17.67698
G1 X80.228 Y84.885 E17.76359
G1 X81.655 Y84.363 E17.8394
G1 X83.084 Y84.15 E17.91148
G1 X84.297 Y84.31 E17.97252
G1 X85.935 Y84.885 E18.05913
G1 X87.464 Y84.325 E18.14037
G1 X88.717 Y84.16 E18.20342
G1 X88.858 Y84.159 E18.21045
G1 X90.111 Y84.325 E18.27351
G1 X91.643 Y84.886 E18.35491
G1 X93.174 Y84.325 E18.43626
G1 X94.497 Y84.15 E18.50283
G1 X95.711 Y84.31 E18.56393
G1 X97.355 Y84.884 E18.6508
G1 X98.882 Y84.325 E18.73193
G1 X100.206 Y84.15 E18.79856
G1 X101.419 Y84.31 E18.8596
G1 X103.062 Y84.884 E18.94643
G1 X104.485 Y84.363 E19.02203
G1 X105.92 Y84.15 E19.0944
G1 X107.045 Y84.287 E19.15095
G1 X108.579 Y84.783 E19.23138
G1 X109.968 Y84.291 E19.30489
G1 X111.356 Y84.091 E19.37486
G1 X112.554 Y84.248 E19.43514
G1 X114.175 Y84.808 E19.5207
G1 X115.683 Y84.263 E19.6007
G1 X116.991 Y84.09 E19.66652
G1 X118.193 Y84.248 E19.727
G1 X119.814 Y84.808 E19.81257
G1 X121.323 Y84.262 E19.89263
G1 X122.632 Y84.091 E19.95849
G1 X123.832 Y84.248 E20.01887
G1 X125.453 Y84.808 E20.10443
G1 X126.86 Y84.298 E20.17909
G1 X128.274 Y84.091 E20.25039
G1 X129.471 Y84.248 E20.31062
G1 X131.091 Y84.808 E20.39613
G1 X132.6 Y84.263 E20.47618
G1 X133.91 Y84.091 E20.5421
G1 X135.111 Y84.248 E20.60252
G1 X136.732 Y84.808 E20.68809
G1 X138.24 Y84.263 E20.76808
G1 X139.547 Y84.09 E20.83386
G1 X140.751 Y84.248 E20.89444
G1 X142.373 Y84.807 E20.98003
G1 X143.777 Y84.3 E21.05451
G1 X145.101 Y84.103 E21.12129
G1 X146.205 Y84.177 E21.17649
G1 X147.253 Y84.444 E21.23045
G1 X148.302 Y84.917 E21.28786
G1 X149.142 Y85.509 E21.33912
G1 X149.847 Y86.241 E21.38983
G1 X150.377 Y87.083 E21.43946
G1 X150.717 Y88.031 E21.48971
G1 X150.835 Y89.061 E21.54143
G1 X150.683 Y90.061 E21.5919
G1 X150.112 Y91.477 E21.66807
G1 X150.668 Y92.79 E21.73921
G1 X150.832 Y93.877 E21.79405
G1 X150.683 Y94.87 E21.84415
G1 X150.113 Y96.285 E21.92025
G1 X150.669 Y97.603 E21.99162
G1 X150.833 Y98.679 E22.04592
G1 X150.683 Y99.675 E22.09617
G1 X150.113 Y101.09 E22.17228
G1 X150.634 Y102.325 E22.23915
G1 X150.832 Y103.487 E22.29796
G1 X150.683 Y104.48 E22.34806
G1 X150.113 Y105.896 E22.42421
G1 X150.669 Y107.214 E22.49558
G1 X150.825 Y108.243 E22.5475
G1 X150.826 Y108.338 E22.55224
G1 X150.671 Y109.369 E22.60425
G1 X150.121 Y110.682 E22.67527
G0 F3600 X150.555 Y110.682
;TYPE:WALL-OUTER
G1 F1800 X151.059 Y111.884 E22.7403
G1 X151.224 Y112.984 E22.79579
G1 X151.119 Y114.117 E22.85256
G1 X150.77 Y115.151 E22.90701
G1 X150.207 Y116.077 E22.96107
G1 X149.461 Y116.876 E23.01561
G1 X148.494 Y117.577 E23.0752
G1 X147.471 Y118.053 E23.13149
G1 X146.356 Y118.353 E23.1891
G1 X145.19 Y118.455 E23.24749
G1 X143.77 Y118.266 E23.31896
G1 X142.334 Y117.74 E23.39526
G1 X140.897 Y118.266 E23.4716
G1 X139.479 Y118.455 E23.54297
G1 X138.061 Y118.266 E23.61434
G1 X136.623 Y117.74 E23.69073
G1 X135.293 Y118.227 E23.76139
G1 X133.865 Y118.44 E23.83342
G1 X133.671 Y118.441 E23.8431
G1 X132.353 Y118.266 E23.90944
G1 X130.916 Y117.74 E23.98578
G1 X129.586 Y118.227 E24.05644
G1 X128.158 Y118.44 E24.12847
G1 X127.964 Y118.441 E24.13815
G1 X126.645 Y118.266 E24.20453
G1 X125.209 Y117.74 E24.28083
G1 X123.772 Y118.266 E24.35718
G1 X122.354 Y118.455 E24.42855
G1 X120.935 Y118.266 E24.49996
G1 X119.498 Y117.74 E24.57631
G1 X118.063 Y118.266 E24.65256
G1 X116.647 Y118.455 E24.72383
G1 X115.228 Y118.266 E24.79525
G1 X113.791 Y117.74 E24.87159
G1 X112.355 Y118.266 E24.94789
G1 X110.936 Y118.455 E25.01931
G1 X109.625 Y118.293 E25.08521
G1 X108.277 Y117.839 E25.15618
G1 X106.88 Y118.336 E25.23015
G1 X105.498 Y118.514 E25.29967
G1 X104.206 Y118.344 E25.36469
G1 X102.678 Y117.817 E25.44532
G1 X101.365 Y118.292 E25.51498
G1 X99.855 Y118.513 E25.59112
G1 X98.564 Y118.345 E25.65607
G1 X97.035 Y117.817 E25.73678
G1 X95.724 Y118.291 E25.80633
G1 X94.216 Y118.513 E25.88237
G1 X92.819 Y118.329 E25.95267
G1 X91.4 Y117.816 E26.02795
G1 X90.086 Y118.292 E26.09767
G1 X88.577 Y118.513 E26.17376
G1 X87.179 Y118.329 E26.24411
G1 X85.76 Y117.816 E26.31939
G1 X84.447 Y118.291 E26.38905
G1 X83.035 Y118.5 E26.46026
G1 X82.842 Y118.501 E26.46989
G1 X81.54 Y118.329 E26.53541
G1 X80.121 Y117.816 E26.61069
G1 X78.702 Y118.329 E26.68597
G1 X77.301 Y118.514 E26.75647
G1 X75.9 Y118.33 E26.82697
G1 X74.482 Y117.818 E26.90218
G1 X73.17 Y118.292 E26.97178
G1 X71.659 Y118.514 E27.04797
G1 X70.466 Y118.407 E27.10773
G1 X69.355 Y118.104 E27.16518
G1 X68.336 Y117.625 E27.22136
G1 X67.431 Y116.982 E27.27674
G1 X66.679 Y116.199 E27.3309
G1 X66.106 Y115.285 E27.38472
G1 X65.741 Y114.261 E27.43896
G1 X65.612 Y113.133 E27.4956
G1 X65.777 Y112.032 E27.55115
G1 X66.302 Y110.724 E27.62146
G1 X65.829 Y109.601 E27.68226
G1 X65.613 Y108.321 E27.74702
G1 X65.777 Y107.226 E27.80226
G1 X66.302 Y105.919 E27.87253
G1 X65.829 Y104.795 E27.93337
G1 X65.613 Y103.518 E27.99798
G1 X65.777 Y102.421 E28.05332
G1 X66.302 Y101.114 E28.12359
G1 X65.793 Y99.905 E28.18903
G1 X65.613 Y98.713 E28.24918
G1 X65.777 Y97.616 E28.30452
G1 X66.302 Y96.308 E28.37483
G1 X65.829 Y95.184 E28.43567
G1 X65.613 Y93.908 E28.50024
G1 X65.776 Y92.815 E28.55537
G1 X66.295 Y91.518 E28.62507
G1 X65.826 Y90.399 E28.6856
G1 X65.626 Y89.217 E28.74541
G1 X65.731 Y88.083 E28.80223
G1 X66.109 Y86.969 E28.86092
G1 X66.687 Y86.054 E28.91491
G1 X67.445 Y85.266 E28.96946
G1 X68.354 Y84.623 E29.02501
G1 X69.3 Y84.183 E29.07706
G1 X70.404 Y83.872 E29.13428
G1 X71.568 Y83.754 E29.19265
G1 X72.975 Y83.919 E29.26333
G1 X74.519 Y84.459 E29.34493
G1 X75.954 Y83.934 E29.42117
G1 X77.371 Y83.745 E29.49249
G1 X78.679 Y83.918 E29.55831
G1 X80.225 Y84.46 E29.64005
G1 X81.555 Y83.973 E29.71071
G1 X83.081 Y83.746 E29.78768
G1 X84.386 Y83.918 E29.85335
G1 X85.932 Y84.46 E29.93508
G1 X87.369 Y83.934 E30.01143
G1 X88.687 Y83.76 E30.07775
G1 X88.887 Y83.759 E30.08773
G1 X90.206 Y83.934 E30.15411
G1 X91.643 Y84.46 E30.23046
