;FLAVOR:Marlin
;TIME:1077
;Filament used: 2.99128m
;Layer height: 0.3
;MINX:82.7
;MINY:81.835
;MINZ:0.3
;MAXX:117.3
;MAXY:117.3
;MAXZ:19.5
;Generated with Cura_SteamEngine 4.13.1
M140 S60
M105
M190 S60
M104 S190
M105
M109 S190
M82 ;absolute extrusion mode
G21 ;metric values
 G90 ;absolute positioning
 M82 ;set extruder to absolute mode
 M107 ;start with the fan off
 G28 X0 Y0 ;move X/Y to min endstops
 G28 Z0 ;move Z to min endstops
 G1 Z15.0 F120 ;move the platform down 15mm
 G92 E0 ;zero the extruded length
 G1 F200 E6 ;extrude 6 mm of feed stock
 G92 E0 ;zero the extruded length again
 G1 F120 
 ;Put printing message on LCD screen
 M117 Printing...
G92 E0
G92 E0
G1 F1500 E-6.5
;LAYER_COUNT:65
;LAYER:0
M107
G0 F3600 X82.7 Y82.7 Z0.3
;TYPE:SUPPORT
G1 F1500 E0
G1 F3000 X117.3 Y82.7 E1.76073
G1 X117.3 Y117.3 E3.52145
G1 X82.7 Y117.3 E5.28218
G1 X82.7 Y82.7 E7.0429
G0 F3600 X97.458 Y97.258
G1 F3000 X97.062 Y97.686 E7.07257
G1 X97.039 Y97.714 E7.07442
G1 X96.658 Y98.317 E7.11071
G1 X96.638 Y98.353 E7.11281
G1 X96.403 Y98.986 E7.14717
G1 X96.393 Y99.02 E7.14897
G1 X96.278 Y99.65 E7.18156
G1 X96.274 Y99.686 E7.18341
G1 X96.273 Y100.316 E7.21547
G1 X96.277 Y100.352 E7.21731
G1 X96.393 Y100.982 E7.24991
G1 X96.403 Y101.016 E7.25171
G1 X96.637 Y101.643 E7.28577
G1 X96.657 Y101.679 E7.28786
G1 X97.038 Y102.283 E7.3242
G1 X97.061 Y102.311 E7.32605
G1 X97.46 Y102.746 E7.35609
G1 X97.49 Y102.771 E7.35807
G1 X98.095 Y103.215 E7.39626
G1 X98.127 Y103.233 E7.39813
G1 X98.738 Y103.53 E7.4327
G1 X98.778 Y103.544 E7.43486
G1 X99.366 Y103.689 E7.46568
G1 X99.398 Y103.695 E7.46733
G1 X99.984 Y103.741 E7.49724
G1 X100.016 Y103.741 E7.49887
G1 X100.604 Y103.694 E7.52889
G1 X100.635 Y103.688 E7.5305
G1 X101.222 Y103.544 E7.56125
G1 X101.262 Y103.53 E7.56341
G1 X101.873 Y103.233 E7.59798
G1 X101.905 Y103.215 E7.59985
G1 X102.514 Y102.768 E7.63829
G1 X102.542 Y102.742 E7.64024
G1 X102.938 Y102.314 E7.66991
G1 X102.961 Y102.286 E7.67175
G1 X103.342 Y101.683 E7.70805
G1 X103.362 Y101.647 E7.71015
G1 X103.597 Y101.014 E7.74451
G1 X103.607 Y100.98 E7.74631
G1 X103.722 Y100.35 E7.7789
G1 X103.726 Y100.314 E7.78074
G1 X103.727 Y99.684 E7.8128
G1 X103.723 Y99.648 E7.81465
G1 X103.607 Y99.018 E7.84724
G1 X103.597 Y98.984 E7.84905
G1 X103.363 Y98.357 E7.8831
G1 X103.343 Y98.321 E7.8852
G1 X102.962 Y97.717 E7.92154
G1 X102.939 Y97.689 E7.92338
G1 X102.54 Y97.254 E7.95342
G1 X102.51 Y97.229 E7.95541
G1 X101.905 Y96.785 E7.9936
G1 X101.873 Y96.767 E7.99547
G1 X101.262 Y96.47 E8.03004
G1 X101.222 Y96.456 E8.03219
G1 X100.634 Y96.311 E8.06301
G1 X100.602 Y96.305 E8.06467
G1 X100.016 Y96.259 E8.09458
G1 X99.984 Y96.259 E8.09621
G1 X99.396 Y96.306 E8.12623
G1 X99.365 Y96.312 E8.12783
G1 X98.778 Y96.456 E8.15859
G1 X98.738 Y96.47 E8.16075
G1 X98.127 Y96.767 E8.19532
G1 X98.095 Y96.785 E8.19719
G1 X97.486 Y97.232 E8.23563
G1 X97.458 Y97.258 E8.23758
G0 F3600 X98.679 Y96.322
G1 F3000 X98.679 Y82.86 E8.92263
G0 F3600 X96.012 Y82.86
G1 F3000 X96.012 Y117.14 E10.66707
G0 F3600 X93.345 Y117.14
G1 F3000 X93.345 Y82.86 E12.41151
G0 F3600 X90.678 Y82.86
G1 F3000 X90.678 Y117.14 E14.15595
G0 F3600 X88.011 Y117.14
G1 F3000 X88.011 Y82.86 E15.90039
G0 F3600 X85.344 Y82.86
G1 F3000 X85.344 Y117.14 E17.64483
G0 F3600 X82.86 Y114.681
G1 F3000 X117.14 Y114.681 E19.38927
G0 F3600 X117.14 Y112.014
G1 F3000 X82.86 Y112.014 E21.13372
G0 F3600 X82.86 Y109.347
G1 F3000 X117.14 Y109.347 E22.87816
G0 F3600 X117.14 Y106.68
G1 F3000 X82.86 Y106.68 E24.6226
G0 F3600 X82.86 Y104.013
G1 F3000 X117.14 Y104.013 E26.36704
G0 F3600 X117.14 Y101.346
G1 F3000 X103.645 Y101.346 E27.05377
G0 F3600 X103.654 Y98.679
G1 F3000 X117.14 Y98.679 E27.74005
G0 F3600 X117.14 Y96.012
G1 F3000 X82.86 Y96.012 E29.48449
G0 F3600 X82.86 Y93.345
G1 F3000 X117.14 Y93.345 E31.22893
G0 F3600 X117.14 Y90.678
G1 F3000 X82.86 Y90.678 E32.97337
G0 F3600 X82.86 Y88.011
G1 F3000 X117.14 Y88.011 E34.71781
G0 F3600 X117.14 Y85.344
G1 F3000 X82.86 Y85.344 E36.46225
G0 F3600 X82.86 Y98.679
G1 F3000 X96.345 Y98.679 E37.14848
G0 F3600 X96.355 Y101.346
G1 F3000 X82.86 Y101.346 E37.83521
G0 F3600 X98.679 Y103.679
G1 F3000 X98.679 Y117.14 E38.52021
G0 F3600 X101.346 Y117.14
G1 F3000 X101.346 Y103.667 E39.20583
G1 F1500 E32.70583
G0 F3600 X102.661 Y101.911
G0 X103.122 Y101.026
G0 X103.263 Y100.333
G0 X103.255 Y99.572
G0 X103.041 Y98.748
G0 X101.346 Y96.332
G1 F1500 E39.20583
G1 F3000 X101.346 Y82.86 E39.89139
G0 F3600 X104.013 Y82.86
G1 F3000 X104.013 Y117.14 E41.63583
G0 F3600 X106.68 Y117.14
G1 F3000 X106.68 Y82.86 E43.38027
G0 F3600 X109.347 Y82.86
G1 F3000 X109.347 Y117.14 E45.12471
G0 F3600 X112.014 Y117.14
G1 F3000 X112.014 Y82.86 E46.86915
G0 F3600 X114.681 Y82.86
G1 F3000 X114.681 Y117.14 E48.6136
G1 F1500 E42.1136
;MESH:ball.stl
G0 F3600 X101.648 Y102.824
G0 X101.12 Y102.117
G1 F1500 E48.6136
G0 F3600 X100.559 Y102.345
;TYPE:WALL-OUTER
G1 F3000 X100 Y102.414 E48.64226
G1 X99.443 Y102.345 E48.67082
G1 X98.869 Y102.134 E48.70194
G1 X98.299 Y101.708 E48.73815
G1 X98.07 Y101.447 E48.75582
G1 X97.732 Y100.862 E48.7902
G1 X97.715 Y100.803 E48.79333
G1 X97.601 Y100.292 E48.81997
G1 X97.601 Y99.707 E48.84974
G1 X97.714 Y99.198 E48.87627
G1 X97.732 Y99.137 E48.87951
G1 X98.069 Y98.553 E48.91382
G1 X98.296 Y98.296 E48.93127
G1 X98.871 Y97.866 E48.96781
G1 X99.441 Y97.655 E48.99874
G1 X100 Y97.586 E49.0274
G1 X100.557 Y97.655 E49.05596
G1 X101.131 Y97.866 E49.08708
G1 X101.701 Y98.292 E49.12329
G1 X101.93 Y98.553 E49.14096
G1 X102.268 Y99.138 E49.17534
G1 X102.285 Y99.197 E49.17847
G1 X102.399 Y99.708 E49.20511
G1 X102.399 Y100.293 E49.23488
G1 X102.286 Y100.802 E49.26141
G1 X102.268 Y100.863 E49.26465
G1 X101.931 Y101.447 E49.29896
G1 X101.704 Y101.704 E49.31641
G1 X101.129 Y102.134 E49.35295
G1 X100.559 Y102.345 E49.38388
G0 F3600 X100.361 Y102.369
G0 X99.724 Y102.182
G1 F3000 X100.276 Y102.183 E49.40753
G1 X100.809 Y102.046 E49.43256
G1 X101.294 Y101.78 E49.4556
G1 X101.695 Y101.403 E49.47881
G1 X101.991 Y100.936 E49.49878
G1 X102.162 Y100.411 E49.52147
G1 X102.196 Y99.861 E49.54094
G1 X102.092 Y99.321 E49.56
G1 X101.858 Y98.819 E49.58001
G1 X101.506 Y98.396 E49.59934
G1 X101.06 Y98.072 E49.61285
G1 X100.547 Y97.869 E49.62813
G1 X100 Y97.8 E49.64353
G1 X99.453 Y97.869 E49.65885
G1 X98.94 Y98.072 E49.67414
G1 X98.494 Y98.396 E49.68738
G1 X98.142 Y98.821 E49.70671
G1 X97.908 Y99.321 E49.72678
G1 X97.804 Y99.862 E49.74596
G1 X97.838 Y100.414 E49.76659
G1 X98.009 Y100.937 E49.78921
G1 X98.305 Y101.403 E49.80862
G1 X98.706 Y101.78 E49.82884
G1 X99.191 Y102.046 E49.85286
G1 X99.724 Y102.182 E49.8765
G0 F3600 X99.924 Y102.182
G1 F1500 E43.3765
;MESH:NONMESH
G0 F600 X99.924 Y102.182 Z0.6
G0 F3600 X99.923 Y102.282
G0 X99.177 Y102.083
G0 X98.275 Y101.428
G0 X97.799 Y100.421
G0 X97.849 Y99.415
G0 X98.309 Y98.31
G0 X97.705 Y97.665
G0 X85.344 Y82.7
;TIME_ELAPSED:28.366210
;LAYER:1
M106 S255
;TYPE:SUPPORT
G1 F1500 E49.8765
G1 F4500 X82.7 Y82.7 E50.01104
G1 X82.7 Y117.3 E51.77177
G1 X85.344 Y117.3 E51.90632
G1 X85.344 Y82.7 E53.66704
G1 X88.011 Y82.7 E53.80276
G1 X88.011 Y117.3 E55.56349
G1 X90.678 Y117.3 E55.6992
G1 X90.678 Y82.7 E57.45993
G1 X93.345 Y82.7 E57.59565
G1 X93.345 Y117.3 E59.35637
G1 X96.012 Y117.3 E59.49209
G1 X96.012 Y101.946 E60.27342
G1 X95.872 Y101.653 E60.28995
G1 X95.862 Y101.628 E60.29132
G1 X95.661 Y101.003 E60.32473
G1 X95.655 Y100.972 E60.32634
G1 X95.555 Y100.332 E60.3593
G1 X95.553 Y100.3 E60.36093
G1 X95.554 Y99.692 E60.39187
G1 X95.556 Y99.66 E60.3935
G1 X95.649 Y99.074 E60.4237
G1 X95.654 Y99.03 E60.42595
G1 X95.659 Y99.008 E60.4271
G1 X95.669 Y98.945 E60.43034
G1 X95.678 Y98.945 E60.4308
G1 X95.859 Y98.382 E60.4609
G1 X95.869 Y98.357 E60.46227
G1 X96.012 Y98.057 E60.47918
G1 X96.012 Y82.7 E61.26067
G1 X98.679 Y82.7 E61.39638
G1 X98.679 Y95.758 E62.06088
G1 X98.79 Y95.718 E62.06688
G1 X98.818 Y95.71 E62.06836
G1 X99.385 Y95.597 E62.09779
G1 X99.411 Y95.593 E62.09912
G1 X99.981 Y95.553 E62.1282
G1 X100.009 Y95.553 E62.12963
G1 X100.589 Y95.593 E62.15921
G1 X100.615 Y95.597 E62.16055
G1 X101.181 Y95.709 E62.18991
G1 X101.209 Y95.717 E62.19139
G1 X101.346 Y95.765 E62.19878
G1 X101.346 Y82.7 E62.86363
G1 X104.013 Y82.7 E62.99935
G1 X104.013 Y98.106 E63.78333
G1 X104.128 Y98.347 E63.79692
G1 X104.138 Y98.372 E63.79829
G1 X104.339 Y98.997 E63.8317
G1 X104.345 Y99.028 E63.83331
G1 X104.445 Y99.668 E63.86627
G1 X104.447 Y99.7 E63.8679
G1 X104.446 Y100.308 E63.89884
G1 X104.444 Y100.34 E63.90047
G1 X104.351 Y100.926 E63.93067
G1 X104.346 Y100.97 E63.93292
G1 X104.341 Y100.992 E63.93407
G1 X104.331 Y101.055 E63.93731
G1 X104.322 Y101.055 E63.93777
G1 X104.141 Y101.618 E63.96787
G1 X104.131 Y101.643 E63.96924
G1 X104.013 Y101.89 E63.98317
G1 X103.831 Y102.273 E64.00475
G1 X103.818 Y102.295 E64.00605
G1 X103.75 Y102.401 E64.01245
G1 X103.741 Y102.414 E64.01326
G1 X103.362 Y102.914 E64.04519
G1 X103.339 Y102.939 E64.04692
G1 X102.709 Y103.526 E64.09073
G1 X102.689 Y103.544 E64.0921
G1 X102.432 Y103.724 E64.10807
G1 X102.414 Y103.734 E64.10912
G1 X101.818 Y104.065 E64.14381
G1 X101.786 Y104.079 E64.14559
G1 X101.346 Y104.234 E64.16933
G1 X101.346 Y117.3 E64.83423
G1 X98.679 Y117.3 E64.96995
G1 X98.679 Y104.244 E65.63434
G1 X98.214 Y104.079 E65.65945
G1 X98.182 Y104.065 E65.66123
G1 X97.578 Y103.73 E65.69638
G1 X97.55 Y103.712 E65.69807
G1 X96.941 Y103.225 E65.73775
G1 X96.922 Y103.208 E65.73905
G1 X96.652 Y102.929 E65.75881
G1 X96.636 Y102.911 E65.76003
G1 X96.256 Y102.409 E65.79207
G1 X96.247 Y102.396 E65.79288
G1 X96.181 Y102.292 E65.79914
G1 X96.168 Y102.271 E65.8004
G1 X96.012 Y101.946 E65.81875
G1 F1500 E59.31875
G0 F5400 X97.201 Y103.135
G0 X97.912 Y103.645
G0 X98.646 Y103.99
G0 X99.336 Y104.155
G0 X100.034 Y104.205
G0 X100.733 Y104.142
G0 X101.441 Y103.959
G0 X102.156 Y103.606
G0 X102.734 Y103.174
G0 X104.013 Y101.89
G1 F1500 E65.81875
G1 F4500 X104.013 Y117.3 E66.60293
G1 X106.68 Y117.3 E66.73865
G1 X106.68 Y82.7 E68.49937
G1 X109.347 Y82.7 E68.63509
G1 X109.347 Y117.3 E70.39582
G1 X112.014 Y117.3 E70.53153
G1 X112.014 Y82.7 E72.29226
G1 X114.681 Y82.7 E72.42798
G1 X117.3 Y82.7 E72.56125
G1 X117.3 Y117.3 E74.32198
G1 X114.681 Y117.3 E74.45525
G1 X114.681 Y82.7 E76.21598
G1 F1500 E69.71598
;MESH:ball.stl
G0 F5400 X103.244 Y97.334
G0 X102.3 Y98.204
G0 X102.637 Y99.833
G0 X102.597 Y100.491
G0 X102.393 Y101.122
G0 X102.036 Y101.685
G0 X100.479 Y102.801
G1 F1500 E76.21598
G0 F5400 X100.494 Y102.899
;TYPE:WALL-INNER
G1 F5520 X100 Y102.939 E76.2412
G1 X99.509 Y102.9 E76.26627
G1 X99.03 Y102.782 E76.29137
G1 X98.526 Y102.538 E76.31986
G1 X98.006 Y102.157 E76.35267
G1 X97.685 Y101.808 E76.3768
G1 X97.364 Y101.301 E76.40734
G1 X97.169 Y100.781 E76.4356
G1 X97.073 Y100.261 E76.46251
G1 X97.074 Y99.74 E76.48902
G1 X97.169 Y99.22 E76.51592
G1 X97.364 Y98.696 E76.54437
G1 X97.684 Y98.192 E76.57475
G1 X98.01 Y97.839 E76.5992
G1 X98.522 Y97.464 E76.6315
G1 X99.031 Y97.217 E76.66029
G1 X99.506 Y97.101 E76.68517
G1 X100 Y97.061 E76.71039
G1 X100.491 Y97.1 E76.73546
G1 X100.97 Y97.218 E76.76056
G1 X101.474 Y97.462 E76.78906
G1 X101.994 Y97.843 E76.82186
G1 X102.315 Y98.192 E76.84599
G1 X102.636 Y98.699 E76.87653
G1 X102.831 Y99.219 E76.90479
G1 X102.927 Y99.739 E76.9317
G1 X102.926 Y100.26 E76.95821
G1 X102.831 Y100.78 E76.98511
G1 X102.636 Y101.304 E77.01356
G1 X102.316 Y101.808 E77.04394
G1 X101.99 Y102.161 E77.06839
G1 X101.478 Y102.536 E77.10069
G1 X100.969 Y102.783 E77.12948
G1 X100.494 Y102.899 E77.15436
G0 F5400 X100.479 Y102.801
G0 X99.007 Y102.513
G0 X99.043 Y102.421
G1 F5520 X99.673 Y102.583 E77.18412
G1 X100.327 Y102.583 E77.21529
G1 X100.957 Y102.421 E77.24477
G1 X101.531 Y102.106 E77.27558
G1 X102.006 Y101.66 E77.30634
G1 X102.357 Y101.106 E77.33513
G1 X102.558 Y100.484 E77.36521
G1 X102.598 Y99.835 E77.39553
G1 X102.475 Y99.196 E77.42481
G1 X102.198 Y98.603 E77.45638
G1 X101.782 Y98.102 E77.48649
G1 X101.254 Y97.719 E77.5145
G1 X100.647 Y97.478 E77.54472
G1 X100 Y97.397 E77.57472
G1 X99.353 Y97.478 E77.60468
G1 X98.746 Y97.719 E77.63488
G1 X98.216 Y98.104 E77.66313
G1 X97.802 Y98.605 E77.69324
G1 X97.522 Y99.199 E77.72409
G1 X97.402 Y99.839 E77.75292
G1 X97.442 Y100.492 E77.78346
G1 X97.645 Y101.109 E77.81461
G1 X97.994 Y101.66 E77.84306
G1 X98.469 Y102.106 E77.87427
G1 X99.043 Y102.421 E77.90508
G0 F5400 X99.191 Y102.046
;TYPE:WALL-OUTER
G1 F3510 X99.724 Y102.183 E77.93308
G1 X100.276 Y102.183 E77.96117
G1 X100.809 Y102.046 E77.98918
G1 X101.294 Y101.78 E78.01733
G1 X101.695 Y101.403 E78.04534
G1 X101.992 Y100.935 E78.07354
G1 X102.162 Y100.409 E78.10167
G1 X102.196 Y99.861 E78.12961
G1 X102.092 Y99.321 E78.1576
G1 X101.857 Y98.819 E78.1858
G1 X101.506 Y98.396 E78.21377
G1 X101.06 Y98.072 E78.24183
G1 X100.547 Y97.869 E78.2699
G1 X100 Y97.8 E78.29796
G1 X99.453 Y97.869 E78.32601
G1 X98.94 Y98.072 E78.35409
G1 X98.492 Y98.398 E78.38228
G1 X98.142 Y98.821 E78.41022
G1 X97.906 Y99.323 E78.43845
G1 X97.804 Y99.864 E78.46647
G1 X97.838 Y100.416 E78.49461
G1 X98.009 Y100.937 E78.52251
G1 X98.305 Y101.403 E78.55061
G1 X98.706 Y101.78 E78.57862
G1 X99.191 Y102.046 E78.60677
G0 F5400 X99.384 Y102.095
G0 X99.26 Y102.579
G0 X100.479 Y102.801
G0 X100.553 Y103.296
G1 F3510 X100 Y103.341 E78.635
G1 X99.448 Y103.297 E78.66318
G1 X98.893 Y103.16 E78.69227
G1 X98.315 Y102.88 E78.72495
G1 X97.741 Y102.459 E78.76118
G1 X97.366 Y102.052 E78.78934
G1 X97.003 Y101.479 E78.82386
G1 X96.783 Y100.891 E78.8558
G1 X96.673 Y100.296 E78.8866
G1 X96.674 Y99.706 E78.91662
G1 X96.783 Y99.111 E78.9474
G1 X97.004 Y98.517 E78.97965
G1 X97.367 Y97.945 E79.01413
G1 X97.74 Y97.542 E79.04207
G1 X98.315 Y97.12 E79.07837
G1 X98.893 Y96.84 E79.11105
G1 X99.447 Y96.704 E79.14008
G1 X100 Y96.659 E79.16831
G1 X100.552 Y96.703 E79.19649
G1 X101.107 Y96.84 E79.22558
G1 X101.685 Y97.12 E79.25827
G1 X102.259 Y97.541 E79.29449
G1 X102.634 Y97.948 E79.32265
G1 X102.997 Y98.521 E79.35717
G1 X103.217 Y99.109 E79.38912
G1 X103.327 Y99.704 E79.41991
G1 X103.326 Y100.294 E79.44993
G1 X103.217 Y100.889 E79.48072
G1 X102.996 Y101.483 E79.51297
G1 X102.633 Y102.055 E79.54744
G1 X102.26 Y102.458 E79.57539
G1 X101.685 Y102.88 E79.61168
G1 X101.107 Y103.16 E79.64436
G1 X100.553 Y103.296 E79.67339
G0 F5400 X100.354 Y103.312
G1 F1500 E73.17339
;MESH:NONMESH
G0 F600 X100.354 Y103.312 Z0.9
G0 F5400 X100.314 Y102.813
G0 X99.029 Y102.458
G0 X98.446 Y102.138
G0 X97.964 Y101.685
G0 X97.609 Y101.126
G0 X97.403 Y100.499
G0 X97.699 Y98.204
G0 X96.756 Y97.332
G0 X85.344 Y82.7
;TIME_ELAPSED:39.318767
;LAYER:2
;TYPE:SUPPORT
G1 F1500 E79.67339
G1 F6000 X82.7 Y82.7 E79.80794
G1 X82.7 Y117.3 E81.56867
G1 X85.344 Y117.3 E81.70321
G1 X85.344 Y82.7 E83.46394
G1 X88.011 Y82.7 E83.59966
G1 X88.011 Y117.3 E85.36038
G1 X90.678 Y117.3 E85.4961
G1 X90.678 Y82.7 E87.25683
G1 X93.345 Y82.7 E87.39254
G1 X93.345 Y117.3 E89.15327
G1 X96.012 Y117.3 E89.28899
G1 X96.012 Y103.063 E90.01348
G1 X95.893 Y102.918 E90.02303
G1 X95.875 Y102.893 E90.02459
G1 X95.516 Y102.289 E90.06035
G1 X95.502 Y102.266 E90.06172
G1 X95.241 Y101.644 E90.09604
G1 X95.233 Y101.62 E90.09733
G1 X95.056 Y100.986 E90.13083
G1 X95.052 Y100.96 E90.13217
G1 X94.969 Y100.347 E90.16365
G1 X94.967 Y100.321 E90.16497
G1 X94.967 Y99.687 E90.19724
G1 X94.969 Y99.661 E90.19856
G1 X95.051 Y99.044 E90.23024
G1 X95.055 Y99.016 E90.23168
G1 X95.234 Y98.375 E90.26554
G1 X95.242 Y98.351 E90.26683
G1 X95.501 Y97.736 E90.30079
G1 X95.515 Y97.71 E90.30229
G1 X95.879 Y97.101 E90.3384
G1 X95.897 Y97.077 E90.33992
G1 X96.012 Y96.938 E90.3491
G1 X96.012 Y82.7 E91.07365
G1 X98.679 Y82.7 E91.20937
G1 X98.679 Y95.146 E91.84272
G1 X98.844 Y95.098 E91.85146
G1 X98.866 Y95.094 E91.8526
G1 X99.416 Y95 E91.88099
G1 X99.438 Y94.998 E91.88212
G1 X99.987 Y94.966 E91.9101
G1 X100.011 Y94.966 E91.91133
G1 X100.563 Y94.999 E91.93947
G1 X100.585 Y95.001 E91.94059
G1 X101.137 Y95.094 E91.96908
G1 X101.159 Y95.098 E91.97021
G1 X101.346 Y95.151 E91.9801
G1 X101.346 Y82.7 E92.61371
G1 X104.013 Y82.7 E92.74943
G1 X104.013 Y96.967 E93.47545
G1 X104.107 Y97.082 E93.48301
G1 X104.125 Y97.107 E93.48457
G1 X104.483 Y97.709 E93.52022
G1 X104.497 Y97.732 E93.52159
G1 X104.758 Y98.351 E93.55577
G1 X104.766 Y98.376 E93.55711
G1 X104.944 Y99.014 E93.59081
