;FLAVOR:Marlin
;TIME:12557
;Filament used: 27.021m
;Layer height: 0.2
;MINX:11.988
;MINY:74.382
;MINZ:0.3
;MAXX:188.012
;MAXY:125.618
;MAXZ:21.5
;Generated with Cura_SteamEngine 4.3.0
M140 S60
M105
M190 S60
M104 S215
M105
M109 S215
M82 ;absolute extrusion mode
G21 ;metric values
 G90 ;absolute positioning
 M82 ;set extruder to absolute mode
 M107 ;start with the fan off
 G28 X0 Y0 ;move X/Y to min endstops
 G28 Z0 ;move Z to min endstops
 G1 Z15.0 F120 ;move the platform down 15mm
 G92 E0 ;zero the extruded length
 G1 F200 E6 ;extrude 6 mm of feed stock
 G92 E0 ;zero the extruded length again
 G1 F120 
 ;Put printing message on LCD screen
 M117 Printing...
G92 E0
G92 E0
G1 F1500 E-6.5
;LAYER_COUNT:107
;LAYER:0
M107
;MESH:Outdoor shower drain (1).stl
G0 F3600 X14.388 Y123.218 Z0.3
;TYPE:WALL-INNER
G1 F1500 E0
G1 F2700 X14.388 Y76.782 E2.43254
G1 X185.612 Y76.782 E11.40206
G1 X185.612 Y123.218 E13.83459
G1 X14.388 Y123.218 E22.80411
G0 F3600 X167.021 Y118.44
G1 F2700 X168.787 Y118.166 E22.89773
G1 X170.514 Y117.721 E22.99115
G1 X172.192 Y117.108 E23.08474
G1 X173.8 Y116.324 E23.17845
G1 X175.325 Y115.385 E23.27227
G1 X176.749 Y114.298 E23.36611
G1 X178.064 Y113.074 E23.46022
G1 X179.253 Y111.727 E23.55434
G1 X180.309 Y110.264 E23.64886
G1 X181.215 Y108.708 E23.74318
G1 X181.969 Y107.069 E23.83769
G1 X182.565 Y105.357 E23.93265
G1 X182.994 Y103.601 E24.02734
G1 X183.247 Y101.866 E24.11919
G1 X183.336 Y100.006 E24.21674
G1 X183.261 Y98.314 E24.30546
G1 X183.009 Y96.465 E24.40322
G1 X182.593 Y94.747 E24.49581
G1 X182.006 Y93.031 E24.59082
G1 X181.256 Y91.379 E24.68586
G1 X180.352 Y89.805 E24.78095
G1 X179.298 Y88.332 E24.87583
G1 X178.107 Y86.975 E24.97041
G1 X176.793 Y85.742 E25.0648
G1 X175.363 Y84.642 E25.15931
G1 X173.842 Y83.703 E25.25295
G1 X172.232 Y82.913 E25.34689
G1 X170.552 Y82.292 E25.44072
G1 X168.824 Y81.843 E25.53425
G1 X167.061 Y81.572 E25.62769
G1 X165.279 Y81.472 E25.72118
G1 X163.464 Y81.56 E25.81637
G1 X161.698 Y81.834 E25.90999
G1 X159.971 Y82.279 E26.00341
G1 X158.294 Y82.89 E26.09691
G1 X156.685 Y83.675 E26.1907
G1 X155.16 Y84.615 E26.28454
G1 X153.737 Y85.702 E26.37834
G1 X152.422 Y86.926 E26.47245
G1 X151.232 Y88.273 E26.56661
G1 X150.176 Y89.736 E26.66112
G1 X149.271 Y91.292 E26.75542
G1 X148.517 Y92.931 E26.84993
G1 X147.92 Y94.644 E26.94496
G1 X147.492 Y96.399 E27.03959
G1 X147.239 Y98.134 E27.13143
G1 X147.149 Y99.994 E27.22898
G1 X147.225 Y101.687 E27.31776
G1 X147.477 Y103.535 E27.41546
G1 X147.893 Y105.253 E27.50806
G1 X148.48 Y106.969 E27.60307
G1 X149.23 Y108.621 E27.69811
G1 X150.133 Y110.194 E27.79312
G1 X151.187 Y111.668 E27.88805
G1 X152.378 Y113.025 E27.98263
G1 X153.693 Y114.258 E28.07706
G1 X155.118 Y115.354 E28.17123
G1 X156.643 Y116.302 E28.2653
G1 X158.256 Y117.087 E28.35927
G1 X159.933 Y117.708 E28.45295
G1 X161.661 Y118.157 E28.54647
G1 X163.424 Y118.428 E28.63991
G1 X165.206 Y118.528 E28.73341
G1 X167.021 Y118.44 E28.8286
G0 F3600 X166.981 Y118.041
G1 F2700 X168.706 Y117.774 E28.92004
G1 X170.395 Y117.339 E29.0114
G1 X172.035 Y116.739 E29.10288
G1 X173.607 Y115.973 E29.19449
G1 X175.098 Y115.055 E29.28621
G1 X176.491 Y113.992 E29.378
G1 X177.777 Y112.795 E29.47004
G1 X178.94 Y111.477 E29.56212
G1 X179.973 Y110.046 E29.65457
G1 X180.86 Y108.523 E29.7469
G1 X181.598 Y106.919 E29.83939
G1 X182.181 Y105.244 E29.9323
G1 X182.601 Y103.525 E30.02499
G1 X182.848 Y101.827 E30.11488
G1 X182.936 Y100.005 E30.21043
G1 X182.862 Y98.35 E30.29722
G1 X182.615 Y96.539 E30.39297
G1 X182.209 Y94.859 E30.4835
G1 X181.634 Y93.179 E30.57652
G1 X180.9 Y91.562 E30.66955
G1 X180.015 Y90.022 E30.76259
G1 X178.984 Y88.581 E30.85541
G1 X177.819 Y87.253 E30.94795
G1 X176.534 Y86.047 E31.04027
G1 X175.135 Y84.972 E31.13269
G1 X173.648 Y84.054 E31.22424
G1 X172.074 Y83.281 E31.3161
G1 X170.432 Y82.674 E31.4078
G1 X168.743 Y82.235 E31.49922
G1 X167.019 Y81.97 E31.59059
G1 X165.278 Y81.873 E31.68193
G1 X163.504 Y81.959 E31.77497
G1 X161.779 Y82.226 E31.86641
G1 X160.09 Y82.661 E31.95778
G1 X158.451 Y83.259 E32.04917
G1 X156.878 Y84.026 E32.14085
G1 X155.387 Y84.945 E32.2326
G1 X153.995 Y86.008 E32.32435
G1 X152.709 Y87.205 E32.41638
G1 X151.545 Y88.523 E32.5085
G1 X150.512 Y89.954 E32.60095
G1 X149.626 Y91.477 E32.69325
G1 X148.888 Y93.081 E32.78574
G1 X148.304 Y94.757 E32.87872
G1 X147.885 Y96.475 E32.97135
G1 X147.638 Y98.173 E33.06124
G1 X147.549 Y99.995 E33.1568
G1 X147.624 Y101.651 E33.24363
G1 X147.871 Y103.461 E33.33933
G1 X148.277 Y105.141 E33.42987
G1 X148.852 Y106.821 E33.52289
G1 X149.586 Y108.438 E33.61591
G1 X150.47 Y109.978 E33.70893
G1 X151.501 Y111.419 E33.80175
G1 X152.666 Y112.747 E33.89429
G1 X153.952 Y113.953 E33.98664
G1 X155.346 Y115.025 E34.07876
G1 X156.837 Y115.951 E34.17071
G1 X158.413 Y116.719 E34.26255
G1 X160.053 Y117.326 E34.35415
G1 X161.742 Y117.765 E34.44557
G1 X163.466 Y118.03 E34.53694
G1 X165.207 Y118.127 E34.62829
G1 X166.981 Y118.041 E34.72133
G0 F3600 X13.988 Y123.618
G1 F2700 X13.988 Y76.382 E37.19577
G1 X186.012 Y76.382 E46.2072
G1 X186.012 Y123.618 E48.68164
G1 X13.988 Y123.618 E57.69307
G0 F3600 X13.588 Y124.018
G1 F2700 X13.588 Y75.982 E60.20942
G1 X186.412 Y75.982 E69.26276
G1 X186.412 Y124.018 E71.77911
G1 X13.588 Y124.018 E80.83245
G0 F3600 X166.941 Y117.642
G1 F2700 X168.625 Y117.382 E80.92171
G1 X170.276 Y116.957 E81.01101
G1 X171.878 Y116.37 E81.10039
G1 X173.414 Y115.622 E81.18989
G1 X174.871 Y114.725 E81.27952
G1 X176.233 Y113.686 E81.36925
G1 X177.49 Y112.516 E81.45921
G1 X178.627 Y111.227 E81.54925
G1 X179.637 Y109.828 E81.63964
G1 X180.505 Y108.338 E81.72997
G1 X181.227 Y106.769 E81.82045
G1 X181.797 Y105.131 E81.9113
G1 X182.208 Y103.449 E82.002
G1 X182.449 Y101.788 E82.08993
G1 X182.536 Y100.004 E82.18349
G1 X182.463 Y98.386 E82.26834
G1 X182.221 Y96.613 E82.36208
G1 X181.825 Y94.971 E82.45056
G1 X181.262 Y93.327 E82.54159
G1 X180.544 Y91.745 E82.6326
G1 X179.678 Y90.239 E82.7236
G1 X178.67 Y88.83 E82.81435
G1 X177.531 Y87.531 E82.90486
G1 X176.275 Y86.352 E82.9951
G1 X174.907 Y85.302 E83.08543
G1 X173.454 Y84.404 E83.17491
G1 X171.916 Y83.649 E83.26466
G1 X170.312 Y83.056 E83.35425
G1 X168.662 Y82.627 E83.44356
G1 X166.977 Y82.368 E83.53286
G1 X165.277 Y82.274 E83.62205
G1 X163.544 Y82.358 E83.71294
G1 X161.86 Y82.618 E83.8022
G1 X160.209 Y83.043 E83.89151
G1 X158.608 Y83.628 E83.9808
G1 X157.071 Y84.377 E84.07037
G1 X155.614 Y85.275 E84.16002
G1 X154.253 Y86.314 E84.24972
G1 X152.996 Y87.484 E84.33968
G1 X151.858 Y88.773 E84.42975
G1 X150.848 Y90.172 E84.52014
G1 X149.981 Y91.662 E84.61045
G1 X149.259 Y93.231 E84.70092
G1 X148.688 Y94.87 E84.79184
G1 X148.278 Y96.551 E84.88248
G1 X148.037 Y98.212 E84.9704
G1 X147.949 Y99.996 E85.06397
G1 X148.023 Y101.615 E85.14887
G1 X148.265 Y103.387 E85.24256
G1 X148.661 Y105.029 E85.33104
G1 X149.224 Y106.673 E85.42207
G1 X149.942 Y108.255 E85.51308
G1 X150.807 Y109.761 E85.60406
G1 X151.815 Y111.17 E85.69481
G1 X152.954 Y112.469 E85.78531
G1 X154.211 Y113.648 E85.87559
G1 X155.574 Y114.696 E85.96566
G1 X157.031 Y115.6 E86.05548
G1 X158.57 Y116.351 E86.14519
G1 X160.173 Y116.944 E86.23472
G1 X161.823 Y117.373 E86.32403
G1 X163.508 Y117.632 E86.41334
G1 X165.208 Y117.726 E86.50253
G1 X166.941 Y117.642 E86.59341
G0 F3600 X166.901 Y117.243
G1 F2700 X168.545 Y116.99 E86.68055
G1 X170.157 Y116.575 E86.76775
G1 X171.721 Y116.001 E86.85502
G1 X173.221 Y115.271 E86.94241
G1 X174.644 Y114.395 E87.02994
G1 X175.975 Y113.38 E87.11763
G1 X177.203 Y112.237 E87.20551
G1 X178.314 Y110.977 E87.29351
G1 X179.301 Y109.61 E87.38183
G1 X180.15 Y108.153 E87.47017
G1 X180.856 Y106.619 E87.55863
G1 X181.413 Y105.018 E87.64743
G1 X181.815 Y103.373 E87.73614
G1 X182.05 Y101.749 E87.8221
G1 X182.136 Y100.003 E87.91367
G1 X182.064 Y98.422 E87.99658
G1 X181.827 Y96.687 E88.08831
G1 X181.441 Y95.083 E88.17473
G1 X180.89 Y93.475 E88.26378
G1 X180.188 Y91.928 E88.35277
G1 X179.341 Y90.456 E88.44173
G1 X178.356 Y89.079 E88.53042
G1 X177.243 Y87.809 E88.61888
G1 X176.016 Y86.657 E88.70705
G1 X174.68 Y85.632 E88.79526
G1 X173.26 Y84.754 E88.88272
G1 X171.758 Y84.017 E88.97036
G1 X170.192 Y83.438 E89.05782
G1 X168.581 Y83.019 E89.14502
G1 X166.936 Y82.766 E89.23221
G1 X165.276 Y82.675 E89.3193
G1 X163.584 Y82.757 E89.40804
G1 X161.94 Y83.01 E89.49517
G1 X160.328 Y83.425 E89.58237
G1 X158.765 Y83.997 E89.66956
G1 X157.264 Y84.728 E89.75701
G1 X155.841 Y85.605 E89.84458
G1 X154.511 Y86.62 E89.93222
G1 X153.283 Y87.763 E90.0201
G1 X152.171 Y89.023 E90.10814
G1 X151.184 Y90.39 E90.19646
G1 X150.336 Y91.847 E90.28477
G1 X149.63 Y93.381 E90.37323
G1 X149.072 Y94.983 E90.4621
G1 X148.671 Y96.627 E90.55074
G1 X148.436 Y98.251 E90.6367
G1 X148.349 Y99.997 E90.72828
G1 X148.422 Y101.579 E90.81124
G1 X148.659 Y103.313 E90.90292
G1 X149.045 Y104.917 E90.98934
G1 X149.596 Y106.525 E91.07839
G1 X150.298 Y108.072 E91.16738
G1 X151.144 Y109.544 E91.25632
G1 X152.129 Y110.921 E91.34501
G1 X153.242 Y112.191 E91.43347
G1 X154.47 Y113.343 E91.52167
G1 X155.802 Y114.367 E91.60968
G1 X157.225 Y115.249 E91.69738
G1 X158.728 Y115.983 E91.78501
G1 X160.293 Y116.562 E91.87242
G1 X161.904 Y116.981 E91.95962
G1 X163.549 Y117.234 E92.0468
G1 X165.209 Y117.325 E92.13389
G1 X166.901 Y117.243 E92.22263
G0 F3600 X13.188 Y124.418
G1 F2700 X13.188 Y75.582 E94.78089
G1 X186.812 Y75.582 E103.87614
G1 X186.812 Y124.418 E106.4344
G1 X13.188 Y124.418 E115.52964
G0 F3600 X12.788 Y124.818
G1 F2700 X12.788 Y75.182 E118.12981
G1 X187.212 Y75.182 E127.26696
G1 X187.212 Y124.818 E129.86712
G1 X12.788 Y124.818 E139.00428
G0 F3600 X166.861 Y116.844
G1 F2700 X168.465 Y116.598 E139.08928
G1 X170.038 Y116.193 E139.17437
G1 X171.564 Y115.632 E139.25954
G1 X173.028 Y114.92 E139.34482
G1 X174.417 Y114.065 E139.43026
G1 X175.717 Y113.074 E139.51589
G1 X176.916 Y111.958 E139.6017
G1 X178.001 Y110.727 E139.68766
G1 X178.965 Y109.392 E139.77392
G1 X179.795 Y107.968 E139.86026
G1 X180.485 Y106.469 E139.94671
G1 X181.029 Y104.905 E140.03345
G1 X181.422 Y103.297 E140.12017
G1 X181.651 Y101.71 E140.20416
G1 X181.736 Y100.002 E140.29374
G1 X181.665 Y98.458 E140.37471
G1 X181.433 Y96.761 E140.46444
G1 X181.056 Y95.195 E140.54881
G1 X180.518 Y93.623 E140.63585
G1 X179.832 Y92.111 E140.72283
G1 X179.004 Y90.673 E140.80975
G1 X178.042 Y89.328 E140.89638
G1 X176.955 Y88.087 E140.9828
G1 X175.757 Y86.962 E141.06889
G1 X174.453 Y85.962 E141.15497
G1 X173.066 Y85.104 E141.24041
G1 X171.6 Y84.385 E141.32594
G1 X170.072 Y83.82 E141.41128
G1 X168.5 Y83.411 E141.49637
G1 X166.895 Y83.164 E141.58144
G1 X165.275 Y83.076 E141.66643
G1 X163.624 Y83.156 E141.75302
G1 X162.02 Y83.402 E141.83803
G1 X160.447 Y83.807 E141.92311
G1 X158.922 Y84.366 E142.0082
G1 X157.457 Y85.079 E142.09355
G1 X156.068 Y85.935 E142.17902
G1 X154.769 Y86.926 E142.26461
G1 X153.57 Y88.042 E142.35041
G1 X152.484 Y89.273 E142.43641
G1 X151.52 Y90.608 E142.52267
G1 X150.691 Y92.032 E142.60898
G1 X150.001 Y93.531 E142.69543
G1 X149.456 Y95.096 E142.78224
G1 X149.064 Y96.703 E142.86889
G1 X148.835 Y98.29 E142.95289
G1 X148.749 Y99.998 E143.04247
G1 X148.821 Y101.543 E143.12349
G1 X149.053 Y103.239 E143.21317
G1 X149.43 Y104.805 E143.29754
G1 X149.968 Y106.377 E143.38458
G1 X150.654 Y107.889 E143.47156
G1 X151.481 Y109.327 E143.55846
G1 X152.443 Y110.672 E143.64508
G1 X153.53 Y111.913 E143.7315
G1 X154.729 Y113.038 E143.81763
G1 X156.03 Y114.038 E143.90359
G1 X157.419 Y114.898 E143.98917
G1 X158.886 Y115.615 E144.07471
G1 X160.413 Y116.18 E144.16
G1 X161.985 Y116.589 E144.24509
G1 X163.59 Y116.836 E144.33015
G1 X165.21 Y116.924 E144.41514
G1 X166.861 Y116.844 E144.50173
G0 F3600 X166.821 Y116.445
G1 F2700 X168.385 Y116.206 E144.58461
G1 X169.919 Y115.811 E144.66759
G1 X171.407 Y115.264 E144.75064
G1 X172.835 Y114.569 E144.83383
G1 X174.19 Y113.735 E144.91718
G1 X175.459 Y112.768 E145.00076
G1 X176.629 Y111.679 E145.08449
G1 X177.688 Y110.477 E145.16841
G1 X178.629 Y109.174 E145.25261
G1 X179.44 Y107.783 E145.33695
G1 X180.114 Y106.319 E145.42138
G1 X180.645 Y104.792 E145.50607
G1 X181.029 Y103.221 E145.59079
G1 X181.252 Y101.671 E145.67282
G1 X181.336 Y100.001 E145.76042
G1 X181.266 Y98.494 E145.83945
G1 X181.039 Y96.835 E145.92716
G1 X180.671 Y95.307 E146.00949
G1 X180.146 Y93.771 E146.09453
G1 X179.476 Y92.294 E146.17949
G1 X178.667 Y90.89 E146.26437
G1 X177.728 Y89.577 E146.34893
G1 X176.667 Y88.365 E146.43331
G1 X175.498 Y87.267 E146.51733
G1 X174.226 Y86.292 E146.60128
G1 X172.872 Y85.454 E146.6847
G1 X171.442 Y84.753 E146.76812
G1 X169.952 Y84.202 E146.85134
G1 X168.419 Y83.803 E146.93433
G1 X166.854 Y83.562 E147.01727
G1 X165.274 Y83.477 E147.10016
G1 X163.664 Y83.555 E147.1846
G1 X162.1 Y83.794 E147.26748
G1 X160.566 Y84.189 E147.35046
G1 X159.079 Y84.735 E147.43344
G1 X157.65 Y85.43 E147.51668
G1 X156.295 Y86.265 E147.60006
G1 X155.027 Y87.232 E147.68359
G1 X153.857 Y88.321 E147.76733
G1 X152.797 Y89.523 E147.85128
G1 X151.856 Y90.826 E147.93547
G1 X151.046 Y92.217 E148.0198
G1 X150.372 Y93.681 E148.10422
G1 X149.84 Y95.209 E148.18898
G1 X149.457 Y96.779 E148.27364
G1 X149.234 Y98.329 E148.35567
G1 X149.149 Y99.999 E148.44326
G1 X149.22 Y101.506 E148.5223
G1 X149.447 Y103.165 E148.61001
G1 X149.815 Y104.693 E148.69234
G1 X150.34 Y106.229 E148.77738
G1 X151.01 Y107.706 E148.86234
G1 X151.818 Y109.11 E148.9472
G1 X152.757 Y110.423 E149.03176
G1 X153.818 Y111.635 E149.11614
G1 X154.988 Y112.733 E149.20019
G1 X156.258 Y113.708 E149.28406
G1 X157.613 Y114.547 E149.36755
G1 X159.044 Y115.247 E149.451
G1 X160.533 Y115.798 E149.53417
G1 X162.066 Y116.197 E149.61715
G1 X163.631 Y116.438 E149.7001
G1 X165.211 Y116.523 E149.78299
G1 X166.821 Y116.445 E149.86743
G0 F3600 X166.83 Y116.544
G0 X12.458 Y125.148
G0 X12.388 Y125.218
G1 F2700 X12.388 Y74.782 E152.5095
G1 X187.612 Y74.782 E161.68856
G1 X187.612 Y125.218 E164.33064
G1 X12.388 Y125.218 E173.50969
G0 F3600 X11.988 Y125.618
;TYPE:WALL-OUTER
G1 F2700 X11.988 Y74.382 E176.19368
G1 X188.012 Y74.382 E185.41464
G1 X188.012 Y125.618 E188.09863
G1 X11.988 Y125.618 E197.31959
G0 F3600 X11.988 Y125.418
G0 X12.458 Y125.148
G0 X166.855 Y116.54
G0 X166.781 Y116.046
G1 F2700 X168.305 Y115.814 E197.40035
G1 X169.8 Y115.429 E197.48122
G1 X171.25 Y114.896 E197.56215
G1 X172.642 Y114.218 E197.64325
G1 X173.963 Y113.405 E197.72451
G1 X175.201 Y112.462 E197.80603
G1 X176.342 Y111.4 E197.88769
G1 X177.375 Y110.227 E197.96957
G1 X178.293 Y108.956 E198.0517
G1 X179.085 Y107.598 E198.13405
G1 X179.743 Y106.169 E198.21646
G1 X180.261 Y104.679 E198.2991
G1 X180.636 Y103.145 E198.38182
G1 X180.853 Y101.632 E198.46189
G1 X180.936 Y100 E198.5475
G1 X180.867 Y98.531 E198.62453
G1 X180.645 Y96.909 E198.71029
G1 X180.286 Y95.419 E198.79058
G1 X179.774 Y93.919 E198.87361
G1 X179.12 Y92.477 E198.95655
G1 X178.33 Y91.107 E199.0394
G1 X177.414 Y89.826 E199.12189
G1 X176.379 Y88.643 E199.20423
G1 X175.239 Y87.572 E199.28617
G1 X173.999 Y86.622 E199.368
G1 X172.678 Y85.804 E199.4494
G1 X171.284 Y85.121 E199.53071
G1 X169.832 Y84.584 E199.61181
G1 X168.338 Y84.195 E199.69268
G1 X166.813 Y83.96 E199.77351
G1 X165.273 Y83.878 E199.8543
G1 X163.704 Y83.954 E199.93659
G1 X162.18 Y84.186 E200.01734
G1 X160.685 Y84.571 E200.09821
G1 X159.236 Y85.104 E200.17909
G1 X157.843 Y85.781 E200.26022
G1 X156.522 Y86.595 E200.34151
G1 X155.285 Y87.538 E200.42299
G1 X154.144 Y88.6 E200.50464
G1 X153.11 Y89.773 E200.58656
G1 X152.192 Y91.044 E200.66869
G1 X151.401 Y92.402 E200.75101
G1 X150.743 Y93.831 E200.83343
G1 X150.224 Y95.322 E200.91613
G1 X149.85 Y96.855 E200.99879
G1 X149.633 Y98.368 E201.07886
G1 X149.549 Y100 E201.16446
G1 X149.619 Y101.469 E201.2415
G1 X149.841 Y103.091 E201.32726
G1 X150.2 Y104.581 E201.40755
G1 X150.712 Y106.081 E201.49058
G1 X151.366 Y107.523 E201.57352
G1 X152.155 Y108.893 E201.65634
G1 X153.071 Y110.174 E201.73884
G1 X154.106 Y111.357 E201.82118
G1 X155.247 Y112.428 E201.90316
G1 X156.486 Y113.378 E201.98494
G1 X157.807 Y114.196 E202.06634
G1 X159.202 Y114.879 E202.1477
G1 X160.653 Y115.416 E202.22875
G1 X162.147 Y115.805 E202.30962
G1 X163.672 Y116.04 E202.39045
G1 X165.212 Y116.122 E202.47124
G1 X166.781 Y116.046 E202.55353
G0 F3600 X166.978 Y116.016
G0 X167.053 Y116.51
G0 X167.06 Y118.828
