;FLAVOR:Marlin
;TIME:573
;Filament used: 0.126055m
;Layer height: 0.1
;MINX:92.701
;MINY:92.7
;MINZ:0.3
;MAXX:107.3
;MAXY:107.3
;MAXZ:10
;Generated with Cura_SteamEngine 4.3.0
M140 S60
M105
M190 S60
M104 S200
M105
M109 S200
M82 ;absolute extrusion mode
G21 ;metric values
 G90 ;absolute positioning
 M82 ;set extruder to absolute mode
 M107 ;start with the fan off
 G28 X0 Y0 ;move X/Y to min endstops
 G28 Z0 ;move Z to min endstops
 G1 Z15.0 F120 ;move the platform down 15mm
 G92 E0 ;zero the extruded length
 G1 F200 E6 ;extrude 6 mm of feed stock
 G92 E0 ;zero the extruded length again
 G1 F120 
 ;Put printing message on LCD screen
 M117 Printing...
G92 E0
G92 E0
G1 F1500 E-6.5
;LAYER_COUNT:98
;LAYER:0
M107
;MESH:Snap in check.stl
G0 F3600 X101.371 Y93.241 Z0.3
;TYPE:WALL-INNER
G1 F1500 E0
G1 F1800 X102.03 Y93.409 E0.03393
G1 X102.778 Y93.683 E0.07367
G1 X103.275 Y93.93 E0.10136
G1 X103.863 Y94.287 E0.13568
G1 X104.395 Y94.684 E0.1688
G1 X104.903 Y95.148 E0.20312
G1 X105.355 Y95.654 E0.23697
G1 X105.752 Y96.195 E0.27045
G1 X106.149 Y96.867 E0.30939
G1 X106.381 Y97.383 E0.33762
G1 X106.643 Y98.128 E0.37701
G1 X106.794 Y98.789 E0.41084
G1 X106.88 Y99.455 E0.44434
G1 X106.899 Y100.134 E0.47823
G1 X106.852 Y100.82 E0.51254
G1 X106.741 Y101.476 E0.54573
G1 X106.594 Y102.024 E0.57404
G1 X106.358 Y102.673 E0.60849
G1 X106.069 Y103.275 E0.64181
G1 X105.717 Y103.857 E0.67574
G1 X105.306 Y104.403 E0.70983
G1 X104.78 Y104.977 E0.74868
G1 X104.276 Y105.416 E0.78202
G1 X103.721 Y105.811 E0.81601
G1 X103.129 Y106.149 E0.85002
G1 X102.52 Y106.424 E0.88336
G1 X101.875 Y106.64 E0.91729
G1 X101.209 Y106.793 E0.95138
G1 X100.544 Y106.879 E0.98484
G1 X99.867 Y106.899 E1.01863
G1 X99.177 Y106.851 E1.05314
G1 X98.528 Y106.742 E1.08597
G1 X97.869 Y106.563 E1.12004
G1 X97.231 Y106.32 E1.1541
G1 X96.625 Y106.019 E1.18785
G1 X96.055 Y105.663 E1.22138
G1 X95.516 Y105.246 E1.25538
G1 X95.034 Y104.792 E1.28842
G1 X94.58 Y104.27 E1.32293
G1 X94.188 Y103.72 E1.35663
G1 X93.846 Y103.122 E1.391
G1 X93.579 Y102.526 E1.42358
G1 X93.357 Y101.869 E1.45818
G1 X93.206 Y101.204 E1.4922
G1 X93.136 Y100.658 E1.51966
G1 X93.102 Y99.856 E1.55971
G1 X93.139 Y99.295 E1.58776
G1 X93.261 Y98.514 E1.62719
G1 X93.437 Y97.869 E1.66055
G1 X93.643 Y97.326 E1.68952
G1 X93.981 Y96.624 E1.7284
G1 X94.337 Y96.054 E1.76192
G1 X94.747 Y95.524 E1.79535
G1 X95.218 Y95.023 E1.82966
G1 X95.65 Y94.649 E1.85817
G1 X96.192 Y94.251 E1.89172
G1 X96.779 Y93.903 E1.92576
G1 X97.394 Y93.615 E1.95964
G1 X98.126 Y93.358 E1.99835
G1 X98.79 Y93.206 E2.03233
G1 X99.456 Y93.12 E2.06583
G1 X100.136 Y93.101 E2.09977
G1 X100.712 Y93.14 E2.12857
G1 X101.371 Y93.241 E2.16184
G0 F3600 X101.46 Y92.85
;TYPE:WALL-OUTER
G1 F1800 X102.15 Y93.026 E2.19736
G1 X102.93 Y93.312 E2.23881
G1 X103.467 Y93.579 E2.26873
G1 X104.084 Y93.953 E2.30473
G1 X104.654 Y94.379 E2.34023
G1 X105.189 Y94.868 E2.37639
G1 X105.664 Y95.399 E2.41193
G1 X106.084 Y95.971 E2.44734
G1 X106.508 Y96.689 E2.48894
G1 X106.751 Y97.23 E2.51853
G1 X107.028 Y98.019 E2.56024
G1 X107.189 Y98.721 E2.59618
G1 X107.279 Y99.423 E2.63149
G1 X107.3 Y100.139 E2.66722
G1 X107.25 Y100.865 E2.70353
G1 X107.132 Y101.563 E2.73885
G1 X106.974 Y102.149 E2.76913
G1 X106.727 Y102.829 E2.80522
G1 X106.424 Y103.461 E2.84019
G1 X106.047 Y104.083 E2.87647
G1 X105.615 Y104.658 E2.91235
G1 X105.061 Y105.262 E2.95324
G1 X104.521 Y105.733 E2.98899
G1 X103.938 Y106.148 E3.0247
G1 X103.31 Y106.507 E3.06078
G1 X102.67 Y106.795 E3.0958
G1 X101.978 Y107.027 E3.13221
G1 X101.279 Y107.188 E3.168
G1 X100.577 Y107.278 E3.20331
G1 X99.861 Y107.3 E3.23904
G1 X99.135 Y107.249 E3.27535
G1 X98.437 Y107.132 E3.31066
G1 X97.745 Y106.944 E3.34644
G1 X97.073 Y106.688 E3.38232
G1 X96.429 Y106.368 E3.41819
G1 X95.826 Y105.991 E3.45367
G1 X95.257 Y105.551 E3.48956
G1 X94.74 Y105.064 E3.52499
G1 X94.267 Y104.521 E3.56092
G1 X93.851 Y103.937 E3.59669
G1 X93.49 Y103.306 E3.63296
G1 X93.205 Y102.669 E3.66778
G1 X92.972 Y101.978 E3.70416
G1 X92.811 Y101.273 E3.74023
G1 X92.737 Y100.689 E3.7696
G1 X92.701 Y99.856 E3.8112
G1 X92.741 Y99.251 E3.84145
G1 X92.87 Y98.429 E3.88296
G1 X93.056 Y97.745 E3.91833
G1 X93.272 Y97.175 E3.94874
G1 X93.632 Y96.427 E3.99015
G1 X94.009 Y95.825 E4.02559
G1 X94.442 Y95.265 E4.06091
G1 X94.942 Y94.734 E4.09729
G1 X95.4 Y94.336 E4.12756
G1 X95.972 Y93.916 E4.16297
G1 X96.592 Y93.549 E4.19891
G1 X97.238 Y93.246 E4.23451
G1 X98.02 Y92.972 E4.27585
G1 X98.722 Y92.811 E4.31178
G1 X99.424 Y92.721 E4.34709
G1 X100.141 Y92.7 E4.38288
G1 X100.751 Y92.742 E4.41338
G1 X101.46 Y92.85 E4.44917
G0 F3600 X101.653 Y92.899
G0 X101.298 Y93.625
;TYPE:SKIN
G1 F1800 X101.917 Y93.783 E4.48104
G1 X102.622 Y94.041 E4.51849
G1 X103.086 Y94.272 E4.54435
G1 X103.65 Y94.614 E4.57726
G1 X104.142 Y94.98 E4.60785
G1 X104.629 Y95.425 E4.64076
G1 X105.05 Y95.898 E4.67235
G1 X105.422 Y96.404 E4.70369
G1 X105.809 Y97.059 E4.74164
G1 X106.016 Y97.52 E4.76685
G1 X106.269 Y98.237 E4.80479
G1 X106.411 Y98.863 E4.83681
G1 X106.49 Y99.472 E4.86745
G1 X106.509 Y100.118 E4.89969
G1 X106.462 Y100.789 E4.93325
G1 X106.36 Y101.394 E4.96386
G1 X106.224 Y101.898 E4.9899
G1 X105.996 Y102.529 E5.02338
G1 X105.731 Y103.08 E5.05388
G1 X105.391 Y103.641 E5.08661
G1 X105.001 Y104.159 E5.11896
G1 X104.511 Y104.694 E5.15515
G1 X104.036 Y105.108 E5.18659
G1 X103.51 Y105.482 E5.21879
G1 X102.945 Y105.804 E5.25123
G1 X102.386 Y106.057 E5.28184
G1 X101.767 Y106.265 E5.31442
G1 X101.131 Y106.411 E5.34698
G1 X100.523 Y106.489 E5.37756
G1 X99.882 Y106.509 E5.40955
G1 X99.206 Y106.461 E5.44336
G1 X98.614 Y106.362 E5.47331
G1 X97.999 Y106.195 E5.5051
G1 X97.382 Y105.959 E5.53806
G1 X96.82 Y105.68 E5.56936
G1 X96.266 Y105.335 E5.60192
G1 X95.774 Y104.953 E5.633
G1 X95.315 Y104.522 E5.66441
G1 X94.888 Y104.03 E5.69691
G1 X94.516 Y103.509 E5.72885
G1 X94.195 Y102.947 E5.76114
G1 X93.94 Y102.377 E5.7923
G1 X93.732 Y101.763 E5.82464
G1 X93.589 Y101.131 E5.85697
G1 X93.526 Y100.64 E5.88166
G1 X93.494 Y99.865 E5.92036
G1 X93.527 Y99.338 E5.9467
G1 X93.646 Y98.584 E5.98479
G1 X93.806 Y97.997 E6.01514
G1 X94.002 Y97.478 E6.04282
G1 X94.322 Y96.816 E6.0795
G1 X94.665 Y96.265 E6.11188
G1 X95.04 Y95.781 E6.14243
G1 X95.487 Y95.305 E6.17501
G1 X95.895 Y94.953 E6.20189
G1 X96.408 Y94.576 E6.23365
G1 X96.958 Y94.25 E6.26555
G1 X97.543 Y93.976 E6.29778
G1 X98.235 Y93.732 E6.33439
G1 X98.865 Y93.589 E6.36662
G1 X99.477 Y93.51 E6.3974
G1 X100.12 Y93.491 E6.4295
G1 X100.675 Y93.53 E6.45725
G1 X101.298 Y93.625 E6.48869
G0 F3600 X105.666 Y97.181
G1 F1800 X102.831 Y94.345 E6.68875
G1 X102.761 Y94.275
G0 F3600 X101.882 Y93.962
G1 F1800 X106.032 Y98.113 E6.98159
G0 F3600 X106.227 Y98.874
G1 F1800 X101.136 Y93.782 E7.34083
G0 F3600 X100.486 Y93.698
G1 F1800 X106.31 Y99.522 E7.75174
G0 F3600 X106.328 Y100.105
G1 F1800 X99.9 Y93.677 E8.20527
G0 F3600 X99.362 Y93.705
G1 F1800 X106.291 Y100.634 E8.69415
G0 F3600 X106.222 Y101.131
G1 F1800 X98.864 Y93.773 E9.2133
G0 F3600 X98.403 Y93.878
G1 F1800 X106.119 Y101.594 E9.7577
G0 F3600 X105.985 Y102.025
G1 F1800 X97.974 Y94.014 E10.32292
G0 F3600 X97.56 Y94.166
G1 F1800 X105.834 Y102.44 E10.9067
G0 F3600 X105.653 Y102.825
G1 F1800 X97.175 Y94.347 E11.50487
G0 F3600 X96.809 Y94.547
G1 F1800 X105.453 Y103.19 E12.11471
G0 F3600 X105.24 Y103.543
G1 F1800 X96.458 Y94.761 E12.73433
G0 F3600 X96.132 Y95.001
G1 F1800 X104.996 Y103.864 E13.3597
G0 F3600 X104.74 Y104.175
G1 F1800 X95.82 Y95.255 E13.98905
G0 F3600 X95.525 Y95.525
G1 F1800 X104.47 Y104.47 E14.62017
G0 F3600 X104.178 Y104.743
G1 F1800 X95.252 Y95.817 E15.24995
G0 F3600 X94.996 Y96.128
G1 F1800 X103.871 Y105.003 E15.87613
G0 F3600 X103.54 Y105.237
G1 F1800 X94.757 Y96.455 E16.49578
G0 F3600 X94.54 Y96.803
G1 F1800 X103.192 Y105.455 E17.10622
G0 F3600 X102.83 Y105.658
G1 F1800 X94.347 Y97.175 E17.70474
G0 F3600 X94.163 Y97.557
G1 F1800 X102.44 Y105.834 E18.28873
G0 F3600 X102.026 Y105.986
G1 F1800 X94.008 Y97.968 E18.85445
G0 F3600 X93.88 Y98.405
G1 F1800 X101.593 Y106.119 E19.39867
G0 F3600 X101.133 Y106.224
G1 F1800 X93.782 Y98.873 E19.91733
G0 F3600 X93.705 Y99.361
G1 F1800 X100.635 Y106.292 E20.40631
G0 F3600 X100.098 Y106.32
G1 F1800 X93.674 Y99.897 E20.85952
G0 F3600 X93.699 Y100.487
G1 F1800 X99.513 Y106.302 E21.26977
G0 F3600 X98.867 Y106.221
G1 F1800 X93.771 Y101.125 E21.62932
G0 F3600 X93.961 Y101.881
G1 F1800 X98.121 Y106.041 E21.92283
G1 X98.191 Y106.111
G0 F3600 X97.162 Y105.647
G1 F1800 X94.336 Y102.821 E22.12222
G1 X94.266 Y102.751
;MESH:NONMESH
G0 F600 X94.266 Y102.751 Z0.4
G0 F3600 X101.233 Y93.32
G0 X101.248 Y93.22
;TIME_ELAPSED:19.841358
;LAYER:1
M140 S60
M106 S255
;TYPE:WALL-INNER
;MESH:Snap in check.stl
G1 F2700 X101.906 Y93.374 E22.13346
G1 X102.343 Y93.517 E22.1411
G1 X103.164 Y93.876 E22.156
G1 X103.741 Y94.211 E22.1671
G1 X104.294 Y94.608 E22.17842
G1 X104.802 Y95.054 E22.18966
G1 X105.258 Y95.543 E22.20078
G1 X105.678 Y96.092 E22.21228
G1 X105.927 Y96.481 E22.21996
G1 X106.333 Y97.28 E22.23486
G1 X106.499 Y97.702 E22.2424
G1 X106.695 Y98.36 E22.25382
G1 X106.824 Y99.026 E22.2651
G1 X106.886 Y99.69 E22.27619
G1 X106.882 Y100.37 E22.2875
G1 X106.813 Y101.042 E22.29874
G1 X106.624 Y101.907 E22.31346
G1 X106.409 Y102.541 E22.32459
G1 X106.126 Y103.158 E22.33588
G1 X105.789 Y103.74 E22.34707
G1 X105.387 Y104.298 E22.3585
G1 X105.084 Y104.654 E22.36628
G1 X104.607 Y105.126 E22.37744
G1 X104.082 Y105.553 E22.38869
G1 X103.517 Y105.926 E22.39995
G1 X102.906 Y106.249 E22.41144
G1 X102.293 Y106.5 E22.42246
G1 X101.642 Y106.693 E22.43375
G1 X100.974 Y106.823 E22.44507
G1 X100.308 Y106.886 E22.45619
G1 X99.631 Y106.882 E22.46745
G1 X98.955 Y106.812 E22.47876
G1 X98.288 Y106.676 E22.49008
G1 X97.646 Y106.478 E22.50125
G1 X97.029 Y106.22 E22.51237
G1 X96.431 Y105.895 E22.52369
G1 X95.862 Y105.511 E22.5351
G1 X95.343 Y105.081 E22.54631
G1 X94.874 Y104.607 E22.5574
G1 X94.442 Y104.075 E22.5688
G1 X94.071 Y103.516 E22.57996
G1 X93.755 Y102.914 E22.59126
G1 X93.5 Y102.293 E22.60243
G1 X93.309 Y101.65 E22.61358
G1 X93.151 Y100.759 E22.62863
G1 X93.114 Y100.314 E22.63606
G1 X93.132 Y99.42 E22.65093
G1 X93.188 Y98.954 E22.65873
G1 X93.323 Y98.291 E22.66998
G1 X93.595 Y97.453 E22.68464
G1 X93.778 Y97.034 E22.69224
G1 X94.105 Y96.43 E22.70366
G1 X94.485 Y95.867 E22.71496
G1 X94.92 Y95.343 E22.72628
G1 X95.552 Y94.736 E22.74086
G1 X96.09 Y94.323 E22.75213
G1 X96.654 Y93.974 E22.76316
G1 X97.278 Y93.668 E22.77472
G1 X97.705 Y93.5 E22.78235
G1 X98.358 Y93.306 E22.79368
G1 X99.027 Y93.176 E22.80502
G1 X99.686 Y93.114 E22.81602
G1 X100.579 Y93.132 E22.83088
G1 X101.248 Y93.22 E22.8421
G0 F5400 X101.311 Y92.824
;TYPE:WALL-OUTER
G1 F1800 X102.02 Y92.99 E22.85421
G1 X102.489 Y93.144 E22.86242
G1 X103.343 Y93.517 E22.87791
G1 X103.962 Y93.876 E22.88981
G1 X104.543 Y94.294 E22.90172
G1 X105.082 Y94.767 E22.91364
G1 X105.562 Y95.282 E22.92535
G1 X106.003 Y95.858 E22.93741
G1 X106.277 Y96.287 E22.94588
G1 X106.697 Y97.113 E22.96129
G1 X106.876 Y97.567 E22.96941
G1 X107.086 Y98.271 E22.98162
G1 X107.22 Y98.964 E22.99336
G1 X107.286 Y99.676 E23.00525
G1 X107.282 Y100.393 E23.01718
G1 X107.209 Y101.106 E23.0291
G1 X107.01 Y102.016 E23.04459
G1 X106.782 Y102.686 E23.05636
G1 X106.482 Y103.343 E23.06837
G1 X106.124 Y103.961 E23.08024
G1 X105.706 Y104.541 E23.09213
G1 X105.381 Y104.922 E23.10046
G1 X104.869 Y105.429 E23.11244
G1 X104.317 Y105.877 E23.12427
G1 X103.723 Y106.27 E23.13611
G1 X103.082 Y106.609 E23.14817
G1 X102.426 Y106.877 E23.15996
G1 X101.731 Y107.084 E23.17202
G1 X101.037 Y107.219 E23.18377
G1 X100.323 Y107.286 E23.1957
G1 X99.608 Y107.282 E23.20759
G1 X98.895 Y107.208 E23.21951
G1 X98.192 Y107.065 E23.23144
G1 X97.505 Y106.853 E23.2434
G1 X96.854 Y106.58 E23.25514
G1 X96.223 Y106.238 E23.26707
G1 X95.627 Y105.836 E23.27903
G1 X95.075 Y105.378 E23.29096
G1 X94.571 Y104.869 E23.30287
G1 X94.123 Y104.317 E23.31469
G1 X93.726 Y103.718 E23.32664
G1 X93.393 Y103.086 E23.33852
G1 X93.123 Y102.426 E23.35038
G1 X92.918 Y101.737 E23.36233
G1 X92.753 Y100.809 E23.37801
G1 X92.714 Y100.328 E23.38603
G1 X92.732 Y99.394 E23.40157
G1 X92.793 Y98.888 E23.41005
G1 X92.935 Y98.192 E23.42186
G1 X93.223 Y97.305 E23.43737
G1 X93.418 Y96.857 E23.44549
G1 X93.762 Y96.222 E23.4575
G1 X94.164 Y95.626 E23.46946
G1 X94.621 Y95.076 E23.48135
G1 X95.29 Y94.433 E23.49678
G1 X95.864 Y93.993 E23.50881
G1 X96.462 Y93.623 E23.5205
G1 X97.118 Y93.301 E23.53266
G1 X97.57 Y93.123 E23.54074
G1 X98.269 Y92.915 E23.55286
G1 X98.965 Y92.78 E23.56465
G1 X99.675 Y92.714 E23.57651
G1 X100.612 Y92.732 E23.5921
G1 X101.311 Y92.824 E23.60382
G0 F5400 X101.505 Y92.869
G0 X101.169 Y93.602
;TYPE:SKIN
G1 F1800 X101.801 Y93.75 E23.61462
G1 X102.21 Y93.884 E23.62177
G1 X102.99 Y94.225 E23.63593
G1 X103.526 Y94.537 E23.64624
G1 X104.051 Y94.913 E23.65698
G1 X104.535 Y95.337 E23.66768
G1 X104.953 Y95.786 E23.67789
G1 X105.364 Y96.323 E23.68913
G1 X105.588 Y96.674 E23.69606
G1 X105.974 Y97.433 E23.71022
G1 X106.13 Y97.829 E23.7173
G1 X106.316 Y98.453 E23.72812
G1 X106.439 Y99.088 E23.73888
G1 X106.496 Y99.705 E23.74918
G1 X106.492 Y100.349 E23.75989
G1 X106.428 Y100.978 E23.77041
G1 X106.246 Y101.808 E23.78454
G1 X106.049 Y102.391 E23.79477
G1 X105.775 Y102.987 E23.80568
G1 X105.463 Y103.525 E23.81602
G1 X105.086 Y104.05 E23.82677
G1 X104.799 Y104.387 E23.83413
G1 X104.346 Y104.836 E23.84474
G1 X103.845 Y105.242 E23.85547
G1 X103.322 Y105.588 E23.86589
G1 X102.742 Y105.894 E23.8768
G1 X102.163 Y106.132 E23.88721
G1 X101.539 Y106.317 E23.89803
G1 X100.925 Y106.436 E23.90843
G1 X100.293 Y106.496 E23.91899
G1 X99.654 Y106.492 E23.92962
G1 X99.012 Y106.426 E23.94035
G1 X98.389 Y106.299 E23.95093
G1 X97.775 Y106.109 E23.96161
G1 X97.204 Y105.87 E23.97191
G1 X96.632 Y105.56 E23.98273
G1 X96.091 Y105.195 E23.99358
G1 X95.61 Y104.796 E24.00397
G1 X95.159 Y104.341 E24.01463
G1 X94.761 Y103.85 E24.02514
G1 X94.404 Y103.312 E24.03588
G1 X94.112 Y102.754 E24.04635
G1 X93.868 Y102.163 E24.05698
G1 X93.689 Y101.559 E24.06746
G1 X93.537 Y100.702 E24.08193
G1 X93.504 Y100.309 E24.08849
G1 X93.522 Y99.455 E24.1027
G1 X93.576 Y99.001 E24.1103
G1 X93.7 Y98.393 E24.12062
G1 X93.964 Y97.582 E24.1348
G1 X94.126 Y97.21 E24.14155
G1 X94.433 Y96.642 E24.15229
G1 X94.803 Y96.093 E24.1633
G1 X95.202 Y95.613 E24.17368
G1 X95.804 Y95.036 E24.18755
G1 X96.318 Y94.641 E24.19833
G1 X96.837 Y94.32 E24.20847
G1 X97.445 Y94.021 E24.21974
G1 X97.832 Y93.869 E24.22666
G1 X98.461 Y93.682 E24.23757
G1 X99.076 Y93.563 E24.24799
G1 X99.697 Y93.504 E24.25836
G1 X100.556 Y93.522 E24.27265
G1 X101.169 Y93.602 E24.28293
G0 F5400 X94.837 Y96.364
G1 F1800 X96.382 Y94.818 E24.31928
G1 X96.452 Y94.748
G0 F5400 X97.623 Y94.144
G1 F1800 X94.14 Y97.626 E24.40118
G1 X94.07 Y97.696
G0 F5400 X93.869 Y98.463
G1 F1800 X98.463 Y93.869 E24.50922
G0 F5400 X99.163 Y93.734
G1 F1800 X93.738 Y99.16 E24.63682
G0 F5400 X93.695 Y99.768
G1 F1800 X99.779 Y93.685 E24.7799
G0 F5400 X100.332 Y93.697
G1 F1800 X93.687 Y100.342 E24.93618
G0 F5400 X93.746 Y100.848
G1 F1800 X100.853 Y93.741 E25.10332
G0 F5400 X101.335 Y93.825
G1 F1800 X93.832 Y101.329 E25.27979
G0 F5400 X93.944 Y101.783
G1 F1800 X101.791 Y93.935 E25.46436
G0 F5400 X102.212 Y94.079
G1 F1800 X94.082 Y102.21 E25.65557
G0 F5400 X94.248 Y102.61
G1 F1800 X102.606 Y94.252 E25.85214
G0 F5400 X102.99 Y94.433
G1 F1800 X94.437 Y102.986 E26.05329
G0 F5400 X94.644 Y103.345
G1 F1800 X103.348 Y94.641 E26.258
G0 F5400 X103.684 Y94.871
G1 F1800 X94.869 Y103.685 E26.4653
G0 F5400 X95.117 Y104.003
G1 F1800 X104.007 Y95.113 E26.67438
G0 F5400 X104.309 Y95.377
G1 F1800 X95.38 Y104.306 E26.88438
G0 F5400 X95.661 Y104.59
G1 F1800 X104.59 Y95.661 E27.09437
G0 F5400 X104.858 Y95.96
G1 F1800 X95.962 Y104.855 E27.30358
G0 F5400 X96.278 Y105.105
G1 F1800 X105.102 Y96.281 E27.51111
G0 F5400 X105.334 Y96.615
G1 F1800 X96.617 Y105.332 E27.71612
G0 F5400 X96.974 Y105.54
G1 F1800 X105.538 Y96.976 E27.91753
G0 F5400 X105.729 Y97.351
G1 F1800 X97.345 Y105.735 E28.11471
G0 F5400 X97.744 Y105.901
G1 F1800 X105.902 Y97.744 E28.30656
G0 F5400 X106.041 Y98.17
G1 F1800 X98.169 Y106.042 E28.4917
G0 F5400 X98.616 Y106.161
G1 F1800 X106.162 Y98.615 E28.66917
G0 F5400 X106.255 Y99.088
G1 F1800 X99.091 Y106.252 E28.83766
