;FLAVOR:Marlin
;TIME:8299
;Filament used: 9.20387m
;Layer height: 0.2
;MINX:54.185
;MINY:52.1
;MINZ:0.3
;MAXX:145.815
;MAXY:120.553
;MAXZ:28.1
;Generated with Cura_SteamEngine 4.9.1
M140 S60
M105
M190 S60
M104 S200
M105
M109 S200
M82 ;absolute extrusion mode
G21 ;metric values
 G90 ;absolute positioning
 M82 ;set extruder to absolute mode
 M107 ;start with the fan off
 G28 X0 Y0 ;move X/Y to min endstops
 G28 Z0 ;move Z to min endstops
 G1 Z15.0 F120 ;move the platform down 15mm
 G92 E0 ;zero the extruded length
 G1 F200 E6 ;extrude 6 mm of feed stock
 G92 E0 ;zero the extruded length again
 G1 F120 
 ;Put printing message on LCD screen
 M117 Printing...
G92 E0
G92 E0
G1 F1500 E-6.5
;LAYER_COUNT:140
;LAYER:0
M107
;MESH:Makita battery PVC pole mount (1).stl
G0 F3600 X64.243 Y89.187 Z0.3
;TYPE:WALL-INNER
G1 F1500 E0
G1 F1800 X64.846 Y89.049 E0.0324
G1 X65.363 Y88.754 E0.06359
G1 X65.79 Y88.407 E0.09241
G1 X66.176 Y87.844 E0.12817
G1 X66.383 Y87.227 E0.16226
G1 X66.419 Y86.616 E0.19432
G1 X66.356 Y86.149 E0.21901
G1 X66.265 Y85.872 E0.23428
G1 X65.977 Y85.364 E0.26487
G1 X65.65 Y84.958 E0.29218
G1 X65.178 Y84.618 E0.32265
G1 X64.507 Y84.358 E0.36035
G1 X64.064 Y84.304 E0.38373
G1 X63.347 Y84.388 E0.42154
G1 X62.604 Y84.742 E0.46466
G1 X62.389 Y84.886 E0.47821
G1 X61.928 Y85.433 E0.51569
G1 X61.665 Y85.985 E0.54772
G1 X61.551 Y86.428 E0.57168
G1 X61.552 Y87.082 E0.60594
G1 X61.667 Y87.529 E0.63012
G1 X62.003 Y88.207 E0.66976
G1 X62.408 Y88.632 E0.70051
G1 X62.986 Y88.999 E0.73638
G1 X63.584 Y89.16 E0.76882
G1 X64.243 Y89.187 E0.80337
G0 F3600 X64.252 Y89.286
G0 X71.339 Y99.887
G0 X71.409 Y99.817
G1 F1800 X84.585 Y99.817 E1.49359
G1 X84.585 Y73.688 E2.86235
G1 X71.409 Y73.688 E3.55257
G1 X71.409 Y99.817 E4.92133
G0 F3600 X71.339 Y99.887
G0 X128.564 Y114.277
G0 X128.581 Y114.179
G1 F1800 X128.831 Y114.167 E4.93444
G1 X129.882 Y114.043 E4.98988
G1 X130.041 Y113.954 E4.99943
G1 X130.671 Y113.538 E5.03897
G1 X130.768 Y113.42 E5.04698
G1 X131.2 Y112.817 E5.08583
G1 X131.387 Y112.228 E5.11821
G1 X131.407 Y111.436 E5.15971
G1 X131.392 Y111.277 E5.16807
G1 X131.03 Y110.416 E5.217
G1 X130.856 Y110.174 E5.23262
G1 X130.746 Y110.11 E5.23928
G1 X129.838 Y109.443 E5.2983
G1 X129.644 Y109.403 E5.30868
G1 X128.871 Y109.313 E5.34945
G1 X128.723 Y109.321 E5.35721
G1 X128.066 Y109.497 E5.39284
G1 X127.949 Y109.538 E5.39933
G1 X127.253 Y110.044 E5.44441
G1 X127.133 Y110.173 E5.45364
G1 X126.743 Y110.774 E5.49117
G1 X126.669 Y111.063 E5.5068
G1 X126.538 Y111.811 E5.54658
G1 X126.615 Y112.38 E5.57666
G1 X126.968 Y113.11 E5.61913
G1 X127.482 Y113.678 E5.65926
G1 X127.601 Y113.769 E5.66711
G1 X128.581 Y114.179 E5.72276
G0 F3600 X128.564 Y114.277
G0 X135.293 Y120.056
G0 X135.313 Y120.153
G1 F1800 X72.804 Y120.153 E8.99728
G1 X69.453 Y118.86 E9.18543
G1 X65.843 Y116.497 E9.41145
G1 X62.283 Y113.181 E9.66631
G1 X59.406 Y109.321 E9.9185
G1 X57.42 Y105.265 E10.15508
G1 X55.943 Y100.493 E10.41676
G1 X54.907 Y93.791 E10.77201
G1 X54.585 Y87.334 E11.11068
G1 X54.585 Y86.182 E11.17102
G1 X54.907 Y79.715 E11.51022
G1 X55.943 Y73.012 E11.86552
G1 X57.42 Y68.24 E12.1272
G1 X59.406 Y64.184 E12.36378
G1 X62.283 Y60.325 E12.61593
G1 X65.843 Y57.009 E12.87078
G1 X69.453 Y54.646 E13.0968
G1 X73.057 Y53.256 E13.29915
G1 X74.986 Y52.853 E13.40238
G1 X134.16 Y52.854 E16.5022
G1 X135.926 Y53.618 E16.60299
G1 X137.722 Y54.718 E16.71332
G1 X139.692 Y56.3 E16.84568
G1 X141.67 Y58.279 E16.99225
G1 X142.65 Y59.434 E17.0716
G1 X143.575 Y60.781 E17.1572
G1 X144.21 Y62.135 E17.23554
G1 X144.498 Y63.362 E17.30156
G1 X144.683 Y65.215 E17.39911
G1 X145.415 Y81.248 E18.23987
G1 X145.415 Y92.249 E18.81616
G1 X144.684 Y108.277 E19.65665
G1 X144.498 Y110.144 E19.75494
G1 X144.21 Y111.371 E19.82096
G1 X143.575 Y112.725 E19.8993
G1 X142.65 Y114.072 E19.9849
G1 X141.67 Y115.227 E20.06425
G1 X139.692 Y117.206 E20.21082
G1 X137.725 Y118.784 E20.34292
G1 X135.923 Y119.889 E20.45365
G1 X135.313 Y120.153 E20.48847
G0 F3600 X135.293 Y120.056
G0 X129.026 Y64.289
G0 X129.029 Y64.19
G1 F1800 X129.226 Y64.18 E20.49881
G1 X130.387 Y63.741 E20.56383
G1 X130.56 Y63.63 E20.5746
G1 X131.039 Y63.069 E20.61324
G1 X131.129 Y62.924 E20.62218
G1 X131.396 Y62.063 E20.6694
G1 X131.422 Y61.92 E20.67701
G1 X131.39 Y61.287 E20.71022
G1 X131.23 Y60.761 E20.73902
G1 X130.829 Y60.141 E20.7777
G1 X130.723 Y60.049 E20.78505
G1 X129.895 Y59.516 E20.83663
G1 X129.631 Y59.421 E20.85133
G1 X128.266 Y59.439 E20.92284
G1 X127.988 Y59.514 E20.93793
G1 X127.153 Y60.161 E20.99326
G1 X127.065 Y60.303 E21.00201
G1 X126.639 Y61.062 E21.04761
G1 X126.595 Y61.23 E21.0567
G1 X126.589 Y62.365 E21.11616
G1 X127.311 Y63.477 E21.18562
G1 X127.491 Y63.692 E21.2003
G1 X128.179 Y64.06 E21.24118
G1 X128.31 Y64.097 E21.24831
G1 X129.029 Y64.19 E21.28629
G0 F3600 X129.045 Y63.789
;TYPE:WALL-OUTER
G1 F1800 X129.143 Y63.784 E21.29143
G1 X130.207 Y63.381 E21.35103
G1 X130.295 Y63.325 E21.35649
G1 X130.715 Y62.833 E21.39038
G1 X130.762 Y62.757 E21.39506
G1 X131.007 Y61.968 E21.43834
G1 X131.02 Y61.895 E21.44222
G1 X130.993 Y61.356 E21.47049
G1 X130.864 Y60.931 E21.49376
G1 X130.523 Y60.405 E21.5266
G1 X130.482 Y60.369 E21.52946
G1 X129.717 Y59.877 E21.5771
G1 X129.564 Y59.822 E21.58562
G1 X128.322 Y59.838 E21.65069
G1 X128.17 Y59.879 E21.65893
G1 X127.455 Y60.433 E21.70632
G1 X127.409 Y60.507 E21.71088
G1 X127.013 Y61.213 E21.75329
G1 X126.995 Y61.282 E21.75702
G1 X126.99 Y62.248 E21.80763
G1 X127.633 Y63.239 E21.86951
G1 X127.748 Y63.376 E21.87888
G1 X128.329 Y63.687 E21.9134
G1 X128.39 Y63.704 E21.91672
G1 X129.045 Y63.789 E21.95132
G0 F3600 X129.143 Y63.784
G0 X129.238 Y63.748
G0 X129.414 Y64.215
G0 X126.499 Y111.811
G0 X126.935 Y113.132
G0 X127.516 Y113.735
G0 X128.459 Y114.236
G0 X128.652 Y113.775
G1 F1800 X128.798 Y113.768 E21.95897
G1 X129.756 Y113.655 E22.00951
G1 X129.833 Y113.612 E22.01413
G1 X130.4 Y113.238 E22.04971
G1 X130.45 Y113.177 E22.05384
G1 X130.838 Y112.635 E22.08876
G1 X130.989 Y112.161 E22.11482
G1 X131.007 Y111.45 E22.15207
G1 X131 Y111.376 E22.15597
G1 X130.679 Y110.613 E22.19933
G1 X130.581 Y110.477 E22.20811
G1 X130.533 Y110.449 E22.21102
G1 X129.672 Y109.817 E22.26697
G1 X129.58 Y109.798 E22.27189
G1 X128.859 Y109.714 E22.30992
G1 X128.786 Y109.718 E22.31375
G1 X128.185 Y109.879 E22.34634
G1 X128.137 Y109.896 E22.34901
G1 X127.519 Y110.345 E22.38903
G1 X127.449 Y110.42 E22.3944
G1 X127.114 Y110.937 E22.42667
G1 X127.06 Y111.147 E22.43803
G1 X126.943 Y111.819 E22.47376
G1 X127.003 Y112.263 E22.49723
G1 X127.303 Y112.884 E22.53336
G1 X127.753 Y113.382 E22.56852
G1 X127.802 Y113.419 E22.57174
G1 X128.652 Y113.775 E22.62001
G0 F3600 X128.798 Y113.768
G0 X128.851 Y113.762
G0 X128.908 Y114.259
G0 X135.293 Y120.056
G0 X135.396 Y120.553
G1 F1800 X72.73 Y120.553 E25.90275
G1 X69.268 Y119.217 E26.09714
G1 X65.594 Y116.812 E26.32717
G1 X61.985 Y113.45 E26.58555
G1 X59.064 Y109.532 E26.84156
G1 X57.047 Y105.413 E27.08181
G1 X55.553 Y100.584 E27.34661
G1 X54.508 Y93.824 E27.70493
G1 X54.185 Y87.354 E28.04429
G1 X54.185 Y86.162 E28.10673
G1 X54.508 Y79.682 E28.4466
G1 X55.553 Y72.921 E28.80498
G1 X57.047 Y68.092 E29.06978
G1 X59.064 Y63.973 E29.31003
G1 X61.985 Y60.056 E29.56599
G1 X65.594 Y56.694 E29.82437
G1 X69.268 Y54.289 E30.0544
G1 X72.947 Y52.87 E30.26096
G1 X74.942 Y52.453 E30.36773
G1 X134.215 Y52.454 E33.47273
G1 X134.264 Y52.463 E33.47534
G1 X136.111 Y53.262 E33.58076
G1 X137.952 Y54.39 E33.69386
G1 X139.962 Y56.004 E33.8289
G1 X141.964 Y58.007 E33.97725
G1 X142.967 Y59.189 E34.05846
G1 X143.923 Y60.581 E34.14692
G1 X144.589 Y62.002 E34.22913
G1 X144.894 Y63.298 E34.29887
G1 X145.083 Y65.197 E34.39884
G1 X145.815 Y81.23 E35.2396
G1 X145.815 Y92.267 E35.81777
G1 X145.084 Y108.298 E36.65842
G1 X144.894 Y110.208 E36.75897
G1 X144.589 Y111.504 E36.82872
G1 X143.923 Y112.925 E36.91093
G1 X142.967 Y114.317 E36.99939
G1 X141.964 Y115.499 E37.08059
G1 X139.962 Y117.502 E37.22895
G1 X137.955 Y119.112 E37.36373
G1 X136.108 Y120.245 E37.47724
G1 X135.396 Y120.553 E37.51788
G0 F3600 X135.196 Y120.553
G0 X135.196 Y120.053
G0 X71.381 Y99.845
G0 X71.809 Y99.417
G1 F1800 X84.185 Y99.417 E38.16619
G1 X84.185 Y74.088 E39.49304
G1 X71.809 Y74.088 E40.14135
G1 X71.809 Y99.417 E41.46821
G0 F3600 X72.009 Y99.417
G0 X72.009 Y99.917
G0 X64.185 Y89.284
G0 X64.206 Y88.785
G1 F1800 X64.699 Y88.672 E41.4947
G1 X65.136 Y88.423 E41.52105
G1 X65.493 Y88.133 E41.54514
G1 X65.815 Y87.664 E41.57495
G1 X65.987 Y87.151 E41.60329
G1 X66.017 Y86.631 E41.63057
G1 X65.964 Y86.239 E41.6513
G1 X65.897 Y86.034 E41.66259
G1 X65.645 Y85.59 E41.68934
G1 X65.372 Y85.251 E41.71214
G1 X64.986 Y84.972 E41.73709
G1 X64.409 Y84.749 E41.76949
G1 X64.063 Y84.707 E41.78775
G1 X63.459 Y84.778 E41.81961
G1 X62.803 Y85.09 E41.85766
G1 X62.659 Y85.187 E41.86676
G1 X62.267 Y85.652 E41.89862
G1 X62.043 Y86.122 E41.92589
G1 X61.951 Y86.478 E41.94515
G1 X61.952 Y87.031 E41.97412
G1 X62.044 Y87.389 E41.99349
G1 X62.334 Y87.975 E42.02774
G1 X62.664 Y88.321 E42.05278
G1 X63.149 Y88.629 E42.08288
G1 X63.645 Y88.762 E42.10978
G1 X64.206 Y88.785 E42.13919
G0 F3600 X64.401 Y88.741
G0 X64.28 Y89.579
;TYPE:SKIN
G1 F1800 X64.989 Y89.416 E42.1773
G1 X65.584 Y89.077 E42.21318
G1 X66.08 Y88.674 E42.24665
G1 X66.529 Y88.02 E42.28821
G1 X66.769 Y87.301 E42.32792
G1 X66.811 Y86.601 E42.36465
G1 X66.738 Y86.061 E42.3932
G1 X66.624 Y85.714 E42.41233
G1 X66.301 Y85.144 E42.44665
G1 X65.921 Y84.673 E42.47835
G1 X65.365 Y84.273 E42.51423
G1 X64.602 Y83.976 E42.55712
G1 X64.064 Y83.912 E42.58551
G1 X63.238 Y84.008 E42.62907
G1 X62.411 Y84.402 E42.67705
G1 X62.126 Y84.593 E42.69503
G1 X61.598 Y85.22 E42.73797
G1 X61.297 Y85.851 E42.77459
G1 X61.161 Y86.379 E42.80315
G1 X61.162 Y87.131 E42.84255
G1 X61.3 Y87.666 E42.87149
G1 X61.679 Y88.433 E42.9163
G1 X62.159 Y88.936 E42.95273
G1 X62.828 Y89.36 E42.99422
G1 X63.525 Y89.548 E43.03203
G1 X64.28 Y89.579 E43.07162
G0 F3600 X54.975 Y87.334
G1 F1800 X54.975 Y86.201 E43.13097
G1 X55.295 Y79.756 E43.46901
G1 X56.326 Y73.092 E43.82225
G1 X57.781 Y68.394 E44.07989
G1 X59.744 Y64.384 E44.31377
G1 X62.575 Y60.586 E44.56192
G1 X66.084 Y57.317 E44.81314
G1 X69.632 Y54.995 E45.03527
G1 X73.166 Y53.632 E45.23369
G1 X75.028 Y53.243 E45.33333
G1 X134.08 Y53.244 E48.42675
G1 X135.744 Y53.964 E48.52173
G1 X137.498 Y55.038 E48.62947
G1 X139.438 Y56.596 E48.75981
G1 X141.372 Y58.531 E48.90313
G1 X142.338 Y59.669 E48.98132
G1 X143.237 Y60.978 E49.06451
G1 X143.838 Y62.262 E49.13877
G1 X144.113 Y63.431 E49.20168
G1 X144.293 Y65.233 E49.29655
G1 X145.025 Y81.248 E50.13637
G1 X145.025 Y92.231 E50.71171
G1 X144.295 Y108.248 E51.55163
G1 X144.113 Y110.075 E51.64781
G1 X143.838 Y111.244 E51.71072
G1 X143.237 Y112.528 E51.78498
G1 X142.338 Y113.837 E51.86817
G1 X141.372 Y114.975 E51.94636
G1 X139.438 Y116.91 E52.08968
G1 X137.499 Y118.466 E52.21991
G1 X135.743 Y119.542 E52.3278
G1 X135.233 Y119.763 E52.35691
G1 X72.876 Y119.763 E55.62347
G1 X69.632 Y118.511 E55.80562
G1 X66.084 Y116.189 E56.02775
G1 X62.575 Y112.92 E56.27897
G1 X59.744 Y109.121 E56.52716
G1 X57.781 Y105.111 E56.76104
G1 X56.326 Y100.413 E57.01868
G1 X55.295 Y93.75 E57.37187
G1 X54.975 Y87.334 E57.70839
G0 F3600 X71.019 Y100.207
G1 F1800 X84.975 Y100.207 E58.43947
G1 X84.975 Y73.298 E59.84909
G1 X71.019 Y73.298 E60.58017
G1 X71.019 Y100.207 E61.98979
G0 F3600 X126.381 Y110.616
G1 F1800 X126.287 Y110.981 E62.00954
G1 X126.144 Y111.803 E62.05324
G1 X126.237 Y112.493 E62.08971
G1 X126.641 Y113.33 E62.1384
G1 X127.217 Y113.966 E62.18335
G1 X127.404 Y114.11 E62.19571
G1 X128.511 Y114.573 E62.25857
G1 X128.864 Y114.555 E62.27709
G1 X130.005 Y114.421 E62.33727
G1 X130.244 Y114.287 E62.35162
G1 X130.934 Y113.831 E62.39495
G1 X131.078 Y113.658 E62.40674
G1 X131.553 Y112.994 E62.44951
G1 X131.775 Y112.293 E62.48803
G1 X131.797 Y111.422 E62.53367
G1 X131.774 Y111.181 E62.54635
G1 X131.373 Y110.224 E62.60071
G1 X131.124 Y109.879 E62.62299
G1 X130.956 Y109.781 E62.63318
G1 X130 Y109.078 E62.69534
G1 X129.706 Y109.017 E62.71107
G1 X128.883 Y108.921 E62.75448
G1 X128.661 Y108.933 E62.76612
G1 X127.951 Y109.124 E62.80464
G1 X127.766 Y109.189 E62.81491
G1 X126.993 Y109.751 E62.86498
G1 X126.825 Y109.933 E62.87795
G1 X126.381 Y110.616 E62.92063
G0 F3600 X126.199 Y62.48
G1 F1800 X126.997 Y63.709 E62.99739
G1 X127.241 Y64 E63.01728
G1 X128.033 Y64.424 E63.06434
G1 X128.232 Y64.48 E63.07517
G1 X129.014 Y64.582 E63.11648
G1 X129.307 Y64.566 E63.13185
G1 X130.563 Y64.092 E63.20218
G1 X130.819 Y63.927 E63.21813
G1 X131.355 Y63.299 E63.26138
G1 X131.486 Y63.088 E63.27439
G1 X131.776 Y62.156 E63.32553
G1 X131.814 Y61.945 E63.33676
G1 X131.778 Y61.219 E63.37484
G1 X131.587 Y60.595 E63.40902
G1 X131.127 Y59.883 E63.45343
G1 X130.957 Y59.736 E63.4652
G1 X130.069 Y59.165 E63.5205
G1 X129.697 Y59.031 E63.54122
G1 X128.212 Y59.049 E63.61901
G1 X127.811 Y59.157 E63.64077
G1 X126.859 Y59.896 E63.7039
G1 X126.729 Y60.104 E63.71675
G1 X126.274 Y60.914 E63.76542
G1 X126.205 Y61.179 E63.77976
G1 X126.199 Y62.48 E63.84791
G0 F3600 X126.602 Y61.048
G0 X127.124 Y60.135
G0 X127.809 Y59.604
G0 X136.92 Y54.896
G1 F1800 X143.051 Y61.027 E64.30212
G1 X143.121 Y61.097
G0 F3600 X143.567 Y62.108
G1 F1800 X135.524 Y54.065 E64.89797
G1 X135.454 Y53.995
G0 F3600 X134.527 Y53.634
G1 F1800 X143.805 Y62.912 E65.58531
G0 F3600 X143.951 Y63.624
G1 F1800 X133.751 Y53.424 E66.34096
G0 F3600 X133.185 Y53.424
G1 F1800 X144.013 Y64.251 E67.1431
G0 F3600 X144.076 Y64.88
G1 F1800 X132.619 Y53.424 E67.99183
G0 F3600 X132.054 Y53.424
G1 F1800 X144.123 Y65.493 E68.88594
G0 F3600 X144.15 Y66.086
G1 F1800 X131.488 Y53.424 E69.82398
G0 F3600 X130.922 Y53.424
G1 F1800 X144.178 Y66.679 E70.80599
G0 F3600 X144.205 Y67.272
G1 F1800 X130.357 Y53.424 E71.83189
G0 F3600 X129.791 Y53.424
G1 F1800 X144.232 Y67.864 E72.90169
G0 F3600 X144.259 Y68.457
G1 F1800 X129.225 Y53.424 E74.01542
G0 F3600 X128.66 Y53.424
G1 F1800 X144.286 Y69.05 E75.17305
G0 F3600 X144.313 Y69.642
G1 F1800 X128.094 Y53.424 E76.37456
G0 F3600 X127.528 Y53.424
G1 F1800 X144.341 Y70.236 E77.62009
G0 F3600 X144.367 Y70.828
G1 F1800 X126.963 Y53.424 E78.90943
G0 F3600 X126.397 Y53.424
G1 F1800 X144.395 Y71.422 E80.24278
G0 F3600 X144.422 Y72.014
G1 F1800 X125.831 Y53.424 E81.62002
G0 F3600 X125.266 Y53.424
G1 F1800 X144.449 Y72.607 E83.04116
G0 F3600 X144.476 Y73.2
G1 F1800 X131.669 Y60.393 E83.98994
G1 X131.599 Y60.323
G0 F3600 X131.958 Y61.248
G1 F1800 X144.503 Y73.792 E84.91928
G0 F3600 X144.53 Y74.385
G1 F1800 X131.988 Y61.843 E85.84843
G0 F3600 X131.909 Y62.33
G1 F1800 X144.558 Y74.978 E86.78547
G0 F3600 X144.584 Y75.571
G1 F1800 X131.775 Y62.761 E87.73444
G0 F3600 X131.634 Y63.187
G1 F1800 X144.611 Y76.163 E88.69578
G0 F3600 X144.639 Y76.757
G1 F1800 X131.401 Y63.519 E89.67649
G0 F3600 X131.141 Y63.824
G1 F1800 X144.666 Y77.349 E90.67847
G0 F3600 X144.693 Y77.942
G1 F1800 X130.862 Y64.111 E91.70311
G0 F3600 X130.495 Y64.309
G1 F1800 X144.72 Y78.535 E92.75698
G0 F3600 X144.747 Y79.128
G1 F1800 X130.084 Y64.464 E93.8433
G0 F3600 X129.673 Y64.619
G1 F1800 X144.775 Y79.721 E94.96211
G0 F3600 X144.802 Y80.313
G1 F1800 X129.237 Y64.749 E96.11517
G0 F3600 X128.636 Y64.714
G1 F1800 X144.828 Y80.906 E97.31473
G0 F3600 X144.844 Y81.487
G1 F1800 X127.93 Y64.573 E98.56777
G1 X127.86 Y64.503
G0 F3600 X126.257 Y62.9
G1 F1800 X116.78 Y53.424 E99.26982
G0 F3600 X116.215 Y53.424
G1 F1800 X144.844 Y82.053 E101.39075
G0 F3600 X144.844 Y82.619
G1 F1800 X115.649 Y53.424 E103.5536
G0 F3600 X115.083 Y53.424
G1 F1800 X144.844 Y83.184 E105.75836
G0 F3600 X144.844 Y83.75
G1 F1800 X114.518 Y53.424 E108.005
G0 F3600 X113.952 Y53.424
G1 F1800 X144.844 Y84.316 E110.29358
G0 F3600 X144.844 Y84.881
G1 F1800 X113.386 Y53.424 E112.62405
G0 F3600 X112.821 Y53.424
G1 F1800 X144.844 Y85.447 E114.99642
G0 F3600 X144.844 Y86.013
G1 F1800 X112.255 Y53.424 E117.41071
G0 F3600 X111.689 Y53.424
G1 F1800 X144.844 Y86.578 E119.8669
G0 F3600 X144.844 Y87.144
G1 F1800 X111.123 Y53.424 E122.36503
G0 F3600 X110.558 Y53.424
G1 F1800 X144.844 Y87.71 E124.90504
G0 F3600 X144.844 Y88.275
G1 F1800 X109.992 Y53.424 E127.48695
G0 F3600 X109.426 Y53.424
G1 F1800 X144.844 Y88.841 E130.11079
G0 F3600 X144.844 Y89.407
