;FLAVOR:Marlin
;TIME:905
;Filament used: 0.991304m
;Layer height: 0.3
;MINX:71.42
;MINY:71.42
;MINZ:0.3
;MAXX:128.58
;MAXY:128.58
;MAXZ:15
;Generated with Cura_SteamEngine 4.8.0
M140 S60
M105
M190 S60
M104 S200
M105
M109 S200
M82 ;absolute extrusion mode
G21 ;metric values
 G90 ;absolute positioning
 M82 ;set extruder to absolute mode
 M107 ;start with the fan off
 G28 X0 Y0 ;move X/Y to min endstops
 G28 Z0 ;move Z to min endstops
 G1 Z15.0 F120 ;move the platform down 15mm
 G92 E0 ;zero the extruded length
 G1 F200 E6 ;extrude 6 mm of feed stock
 G92 E0 ;zero the extruded length again
 G1 F120 
 ;Put printing message on LCD screen
 M117 Printing...
G92 E0
G92 E0
G1 F1500 E-6.5
;LAYER_COUNT:50
;LAYER:0
M107
;MESH:twist lock test v2.stl
G0 F3600 X78.803 Y81.711 Z0.3
;TYPE:WALL-OUTER
G1 F1500 E0
G1 F1800 X78.427 Y82.16 E0.03068
G1 X78.057 Y82.615 E0.0614
G1 X77.699 Y83.078 E0.09206
G1 X77.348 Y83.549 E0.12283
G1 X77.009 Y84.028 E0.15357
G1 X76.679 Y84.512 E0.18426
G1 X76.36 Y85.005 E0.21502
G1 X76.051 Y85.502 E0.24567
G1 X75.753 Y86.007 E0.27639
G1 X75.465 Y86.519 E0.30716
G1 X75.189 Y87.035 E0.33782
G1 X74.923 Y87.557 E0.36851
G1 X74.667 Y88.085 E0.39925
G1 X74.423 Y88.619 E0.43
G1 X74.191 Y89.156 E0.46065
G1 X73.969 Y89.699 E0.49138
G1 X73.759 Y90.246 E0.52207
G1 X73.56 Y90.798 E0.55281
G1 X73.374 Y91.354 E0.58352
G1 X73.199 Y91.913 E0.61421
G1 X73.035 Y92.476 E0.64492
G1 X72.883 Y93.043 E0.67567
G1 X72.743 Y93.612 E0.70637
G1 X72.615 Y94.184 E0.73708
G1 X72.499 Y94.76 E0.76786
G1 X72.395 Y95.348 E0.79914
G1 X72.302 Y95.933 E0.83017
G1 X72.223 Y96.518 E0.86109
G1 X72.155 Y97.105 E0.89204
G1 X72.101 Y97.694 E0.92303
G1 X72.058 Y98.282 E0.95391
G1 X72.028 Y98.861 E0.98428
G1 X72.011 Y99.437 E1.01447
G1 X72.005 Y100.019 E1.04496
G1 X72.011 Y100.594 E1.07508
G1 X72.028 Y101.146 E1.10401
G1 X72.063 Y101.798 E1.13822
G1 X72.082 Y102.046 E1.15125
G1 X72.097 Y102.26 E1.16248
G1 X71.883 Y102.26 E1.1696
G1 X71.882 Y102.26 E1.16965
G1 X71.511 Y102.26 E1.18908
G1 X71.477 Y101.797 E1.2134
G1 X71.444 Y101.159 E1.24687
G1 X71.426 Y100.572 E1.27763
G1 X71.42 Y99.983 E1.30849
G1 X71.426 Y99.397 E1.33919
G1 X71.444 Y98.835 E1.36864
G1 X71.474 Y98.238 E1.39996
G1 X71.52 Y97.611 E1.43289
G1 X71.575 Y97.036 E1.46315
G1 X71.643 Y96.441 E1.49452
G1 X71.724 Y95.847 E1.52592
G1 X71.821 Y95.23 E1.55864
G1 X71.927 Y94.64 E1.59004
G1 X72.045 Y94.053 E1.62141
G1 X72.175 Y93.47 E1.6527
G1 X72.318 Y92.889 E1.68404
G1 X72.473 Y92.31 E1.71544
G1 X72.641 Y91.736 E1.74677
G1 X72.821 Y91.165 E1.77814
G1 X73.012 Y90.594 E1.80968
G1 X73.214 Y90.035 E1.84081
G1 X73.428 Y89.476 E1.87217
G1 X73.655 Y88.921 E1.90358
G1 X73.892 Y88.372 E1.9349
G1 X74.141 Y87.828 E1.96624
G1 X74.401 Y87.289 E1.99759
G1 X74.674 Y86.756 E2.02896
G1 X74.957 Y86.228 E2.06035
G1 X75.251 Y85.707 E2.09168
G1 X75.556 Y85.191 E2.12308
G1 X75.871 Y84.683 E2.1544
G1 X76.196 Y84.181 E2.18572
G1 X76.533 Y83.686 E2.21709
G1 X76.879 Y83.198 E2.24843
G1 X77.237 Y82.718 E2.2798
G1 X77.607 Y82.242 E2.31138
G1 X77.982 Y81.78 E2.34255
G1 X78.368 Y81.323 E2.37389
G1 X78.763 Y80.873 E2.40525
G1 X79.168 Y80.433 E2.43658
G1 X79.578 Y80.005 E2.46763
G1 X80.002 Y79.581 E2.49904
G1 X80.434 Y79.167 E2.53038
G1 X80.874 Y78.762 E2.56171
G1 X81.324 Y78.367 E2.59308
G1 X81.784 Y77.978 E2.62464
G1 X82.245 Y77.603 E2.65577
G1 X82.72 Y77.236 E2.68721
G1 X83.199 Y76.879 E2.7185
G1 X83.688 Y76.532 E2.74992
G1 X84.182 Y76.196 E2.78121
G1 X84.688 Y75.868 E2.8128
G1 X85.193 Y75.555 E2.84392
G1 X85.712 Y75.248 E2.87551
G1 X86.23 Y74.956 E2.90666
G1 X86.757 Y74.673 E2.938
G1 X87.29 Y74.401 E2.96934
G1 X87.829 Y74.141 E3.00069
G1 X88.373 Y73.892 E3.03203
G1 X88.926 Y73.653 E3.06359
G1 X89.477 Y73.428 E3.09477
G1 X90.04 Y73.212 E3.12636
G1 X90.599 Y73.011 E3.15748
G1 X91.17 Y72.819 E3.18903
G1 X91.742 Y72.639 E3.22045
G1 X92.316 Y72.472 E3.25176
G1 X92.891 Y72.318 E3.28294
G1 X93.476 Y72.174 E3.3145
G1 X94.055 Y72.045 E3.34558
G1 X94.643 Y71.927 E3.377
G1 X95.231 Y71.821 E3.40829
G1 X95.827 Y71.726 E3.43991
G1 X96.416 Y71.646 E3.47105
G1 X97.015 Y71.577 E3.50263
G1 X97.611 Y71.52 E3.534
G1 X98.204 Y71.477 E3.56514
G1 X98.806 Y71.445 E3.59672
G1 X99.403 Y71.426 E3.62801
G1 X100 Y71.42 E3.65929
G1 X100.597 Y71.426 E3.69056
G1 X101.194 Y71.445 E3.72185
G1 X101.796 Y71.476 E3.75343
G1 X102.389 Y71.52 E3.78458
G1 X102.985 Y71.577 E3.81594
G1 X103.534 Y71.641 E3.8449
G1 X103.584 Y71.646 E3.84753
G1 X103.941 Y71.694 E3.8664
G1 X103.873 Y71.812 E3.86695
G1 X103.848 Y71.856 E3.86941
G1 X103.625 Y72.242 E3.89277
G1 X103.509 Y72.226 E3.8989
G1 X102.926 Y72.158 E3.92965
G1 X102.343 Y72.103 E3.96032
G1 X101.758 Y72.06 E3.99105
G1 X101.172 Y72.029 E4.02179
G1 X100.586 Y72.011 E4.0525
G1 X100 Y72.005 E4.0832
G1 X99.414 Y72.011 E4.1139
G1 X98.828 Y72.029 E4.14461
G1 X98.242 Y72.06 E4.17535
G1 X97.657 Y72.103 E4.20608
G1 X97.074 Y72.158 E4.23676
G1 X96.491 Y72.226 E4.2675
G1 X95.911 Y72.305 E4.29817
G1 X95.332 Y72.397 E4.32888
G1 X94.755 Y72.501 E4.35959
G1 X94.179 Y72.616 E4.39036
G1 X93.607 Y72.744 E4.42107
G1 X93.038 Y72.884 E4.45176
G1 X92.471 Y73.036 E4.48251
G1 X91.908 Y73.2 E4.51323
G1 X91.349 Y73.375 E4.54392
G1 X90.793 Y73.562 E4.57465
G1 X90.241 Y73.761 E4.60538
G1 X89.694 Y73.971 E4.63608
G1 X89.151 Y74.193 E4.66681
G1 X88.614 Y74.425 E4.69745
G1 X88.08 Y74.669 E4.72821
G1 X87.552 Y74.925 E4.75895
G1 X87.03 Y75.191 E4.78964
G1 X86.514 Y75.468 E4.82031
G1 X86.002 Y75.756 E4.85109
G1 X85.497 Y76.054 E4.8818
G1 X85 Y76.363 E4.91246
G1 X84.507 Y76.682 E4.94322
G1 X84.023 Y77.012 E4.97391
G1 X83.545 Y77.351 E5.00461
G1 X83.074 Y77.702 E5.03538
G1 X82.611 Y78.06 E5.06604
G1 X82.156 Y78.43 E5.09676
G1 X81.707 Y78.808 E5.1275
G1 X81.268 Y79.195 E5.15816
G1 X80.836 Y79.592 E5.1889
G1 X80.413 Y79.998 E5.21961
G1 X79.994 Y80.417 E5.25065
G1 X79.588 Y80.84 E5.28136
G1 X79.191 Y81.272 E5.3121
G1 X78.803 Y81.711 E5.34279
G0 F3600 X78.675 Y81.864
G0 X78.503 Y81.614
;TYPE:SKIN
G1 F1800 X78.373 Y81.767 E5.34798
G1 X77.011 Y83.516 E5.40527
G1 X75.775 Y85.392 E5.46334
G1 X74.672 Y87.4 E5.52255
G1 X73.794 Y89.35 E5.57783
G1 X73.043 Y91.428 E5.63494
G1 X72.488 Y93.419 E5.68836
G1 X72.067 Y95.543 E5.74432
G1 X71.819 Y97.558 E5.7968
G1 X71.715 Y99.717 E5.85266
G1 X71.767 Y101.749 E5.9052
G1 X71.741 Y102.005 E5.91185
G0 F3600 X71.8 Y102.064
G0 X72.116 Y97.101
G0 X72.576 Y94.176
G0 X73.336 Y91.342
G0 X74.387 Y88.603
G0 X75.719 Y85.988
G0 X77.012 Y83.995
G0 X78.702 Y81.53
G0 X78.633 Y81.461
G1 F1800 X78.765 Y81.311 E5.91695
G1 X80.282 Y79.716 E5.9731
G1 X81.921 Y78.244 E6.0293
G1 X83.681 Y76.893 E6.08589
G1 X85.57 Y75.67 E6.1433
G1 X87.4 Y74.672 E6.19647
G1 X89.351 Y73.795 E6.25104
G1 X91.214 Y73.112 E6.30165
G1 X93.192 Y72.545 E6.35414
G1 X95.299 Y72.106 E6.40904
G1 X97.557 Y71.818 E6.46711
G1 X99.716 Y71.715 E6.52225
G1 X101.748 Y71.767 E6.5741
G1 X103.303 Y71.907 E6.61393
G1 X103.551 Y71.872 E6.62031
G0 F3600 X103.515 Y71.825
G1 F1500 E0.12031
G0 F3600 X102.344 Y72.084
G0 X102.264 Y72.963
G0 X77.099 Y114.547
G0 X76.35 Y115.015
G0 X76.685 Y115.498
;TYPE:WALL-OUTER
G1 F1500 E6.62031
G1 F1800 X77.015 Y115.981 E6.65096
G1 X77.354 Y116.459 E6.68166
G1 X77.705 Y116.93 E6.71243
G1 X78.063 Y117.393 E6.74309
G1 X78.434 Y117.849 E6.77388
G1 X78.812 Y118.297 E6.80459
G1 X79.199 Y118.736 E6.83524
G1 X79.596 Y119.168 E6.86598
G1 X79.998 Y119.587 E6.8964
G1 X80.413 Y120.002 E6.92714
G1 X80.836 Y120.408 E6.95785
G1 X81.268 Y120.805 E6.98859
G1 X81.707 Y121.192 E7.01925
G1 X82.156 Y121.57 E7.04999
G1 X82.611 Y121.94 E7.08071
G1 X83.074 Y122.298 E7.11137
G1 X83.545 Y122.649 E7.14214
G1 X84.023 Y122.988 E7.17284
G1 X84.507 Y123.318 E7.20353
G1 X85 Y123.637 E7.23429
G1 X85.497 Y123.946 E7.26494
G1 X86.002 Y124.244 E7.29566
G1 X86.514 Y124.532 E7.32643
G1 X87.03 Y124.809 E7.35711
G1 X87.552 Y125.075 E7.3878
G1 X88.08 Y125.331 E7.41854
G1 X88.614 Y125.575 E7.4493
G1 X89.151 Y125.807 E7.47994
G1 X89.694 Y126.029 E7.51067
G1 X90.241 Y126.239 E7.54137
G1 X90.793 Y126.438 E7.5721
G1 X91.349 Y126.625 E7.60283
G1 X91.908 Y126.8 E7.63352
G1 X92.471 Y126.964 E7.66424
G1 X93.038 Y127.116 E7.69499
G1 X93.607 Y127.256 E7.72568
G1 X94.179 Y127.384 E7.75639
G1 X94.755 Y127.499 E7.78716
G1 X95.332 Y127.603 E7.81787
G1 X95.911 Y127.695 E7.84858
G1 X96.491 Y127.774 E7.87924
G1 X97.074 Y127.842 E7.90999
G1 X97.657 Y127.897 E7.94067
G1 X98.242 Y127.94 E7.9714
G1 X98.828 Y127.971 E8.00214
G1 X99.414 Y127.989 E8.03285
G1 X100 Y127.995 E8.06355
G1 X100.586 Y127.989 E8.09425
G1 X101.172 Y127.971 E8.12496
G1 X101.758 Y127.94 E8.1557
G1 X102.343 Y127.897 E8.18643
G1 X102.926 Y127.842 E8.2171
G1 X103.509 Y127.774 E8.24785
G1 X104.089 Y127.695 E8.27851
G1 X104.668 Y127.603 E8.30922
G1 X105.245 Y127.499 E8.33994
G1 X105.821 Y127.384 E8.37071
G1 X106.393 Y127.256 E8.40141
G1 X106.962 Y127.116 E8.43211
G1 X107.529 Y126.964 E8.46286
G1 X108.092 Y126.8 E8.49358
G1 X108.651 Y126.625 E8.52426
G1 X109.207 Y126.438 E8.55499
G1 X109.771 Y126.235 E8.58639
G1 X110.326 Y126.021 E8.61755
G1 X110.874 Y125.796 E8.64858
G1 X111.415 Y125.562 E8.67946
G1 X111.952 Y125.316 E8.7104
G1 X112.483 Y125.057 E8.74135
G1 X113.005 Y124.79 E8.77207
G1 X113.512 Y124.518 E8.8022
G1 X114.014 Y124.235 E8.83239
G1 X114.509 Y123.942 E8.86253
G1 X115.033 Y123.615 E8.89488
G1 X115.526 Y123.295 E8.92567
G1 X115.732 Y123.155 E8.93872
G1 X115.909 Y123.034 E8.94995
G1 X116.016 Y123.22 E8.95707
G1 X116.202 Y123.542 E8.97655
G1 X115.818 Y123.804 E9.0009
G1 X115.281 Y124.151 E9.03439
G1 X114.786 Y124.457 E9.06488
G1 X114.272 Y124.761 E9.09616
G1 X113.765 Y125.047 E9.12665
G1 X113.243 Y125.327 E9.15768
G1 X112.71 Y125.599 E9.18903
G1 X112.171 Y125.859 E9.22038
G1 X111.627 Y126.108 E9.25172
G1 X111.074 Y126.347 E9.28328
G1 X110.523 Y126.572 E9.31445
G1 X109.96 Y126.788 E9.34604
G1 X109.401 Y126.989 E9.37716
G1 X108.83 Y127.181 E9.40872
G1 X108.258 Y127.361 E9.44013
G1 X107.684 Y127.528 E9.47145
G1 X107.109 Y127.682 E9.50263
G1 X106.524 Y127.826 E9.53419
G1 X105.945 Y127.955 E9.56526
G1 X105.357 Y128.073 E9.59668
G1 X104.769 Y128.179 E9.62798
G1 X104.173 Y128.274 E9.6596
G1 X103.584 Y128.354 E9.69073
G1 X102.985 Y128.423 E9.72232
G1 X102.389 Y128.48 E9.75368
G1 X101.796 Y128.523 E9.78483
G1 X101.194 Y128.555 E9.81641
G1 X100.597 Y128.574 E9.8477
G1 X100 Y128.58 E9.87897
G1 X99.403 Y128.574 E9.91025
G1 X98.806 Y128.555 E9.94154
G1 X98.204 Y128.524 E9.97312
G1 X97.611 Y128.48 E10.00426
G1 X97.015 Y128.423 E10.03563
G1 X96.416 Y128.354 E10.06721
G1 X95.827 Y128.273 E10.09836
G1 X95.231 Y128.179 E10.12997
G1 X94.643 Y128.073 E10.16127
G1 X94.055 Y127.955 E10.19268
G1 X93.476 Y127.826 E10.22376
G1 X92.891 Y127.682 E10.25532
G1 X92.316 Y127.528 E10.2865
G1 X91.742 Y127.361 E10.31781
G1 X91.17 Y127.181 E10.34923
G1 X90.599 Y126.99 E10.38077
G1 X90.04 Y126.788 E10.4119
G1 X89.477 Y126.572 E10.44349
G1 X88.926 Y126.347 E10.47467
G1 X88.373 Y126.108 E10.50623
G1 X87.829 Y125.859 E10.53757
G1 X87.29 Y125.599 E10.56892
G1 X86.757 Y125.327 E10.60026
G1 X86.23 Y125.044 E10.6316
G1 X85.712 Y124.752 E10.66275
G1 X85.193 Y124.445 E10.69434
G1 X84.688 Y124.132 E10.72546
G1 X84.182 Y123.804 E10.75705
G1 X83.688 Y123.468 E10.78835
G1 X83.199 Y123.121 E10.81976
G1 X82.72 Y122.764 E10.85105
G1 X82.245 Y122.397 E10.8825
G1 X81.784 Y122.022 E10.91363
G1 X81.324 Y121.633 E10.94518
G1 X80.874 Y121.238 E10.97655
G1 X80.434 Y120.833 E11.00788
G1 X80.002 Y120.419 E11.03922
G1 X79.574 Y119.991 E11.07093
G1 X79.16 Y119.559 E11.10227
G1 X78.755 Y119.119 E11.1336
G1 X78.36 Y118.669 E11.16497
G1 X77.977 Y118.215 E11.19608
G1 X77.597 Y117.747 E11.22766
G1 X77.233 Y117.275 E11.25889
G1 X76.873 Y116.792 E11.29044
G1 X76.527 Y116.304 E11.32178
G1 X76.19 Y115.809 E11.35315
G1 X75.865 Y115.307 E11.38448
G1 X75.55 Y114.799 E11.41579
G1 X75.245 Y114.283 E11.44719
G1 X74.951 Y113.762 E11.47853
G1 X74.669 Y113.235 E11.50984
G1 X74.397 Y112.701 E11.54123
G1 X74.137 Y112.162 E11.57258
G1 X73.888 Y111.618 E11.60392
G1 X73.671 Y111.118 E11.63247
G1 X73.65 Y111.069 E11.63527
G1 X73.517 Y110.74 E11.65386
G1 X73.65 Y110.74 E11.6543
G1 X73.704 Y110.74 E11.65692
G1 X74.148 Y110.74 E11.68018
G1 X74.195 Y110.854 E11.68664
G1 X74.427 Y111.391 E11.71728
G1 X74.671 Y111.925 E11.74804
G1 X74.927 Y112.453 E11.77878
G1 X75.194 Y112.975 E11.80949
G1 X75.471 Y113.491 E11.84017
G1 X75.759 Y114.003 E11.87094
G1 X76.057 Y114.508 E11.90166
G1 X76.366 Y115.005 E11.93232
G1 X76.685 Y115.498 E11.96308
G0 F3600 X76.798 Y115.663
G0 X76.431 Y115.464
;TYPE:SKIN
G1 F1800 X75.801 Y114.833 E11.98643
G0 F3600 X75.941 Y114.691
G1 F1800 X75.385 Y114.134 E12.00705
G0 F3600 X75.282 Y113.749
G1 F1800 X74.951 Y113.135 E12.02964
G1 X74.152 Y111.487 E12.08896
G1 X74.001 Y111.053 E12.10384
G0 F3600 X73.882 Y110.934
G0 X76.29 Y115.605
G1 F1800 X77.049 Y116.364 E12.13196
G0 F3600 X76.912 Y116.509
G1 F1800 X77.892 Y117.49 E12.16828
G0 F3600 X77.778 Y117.659
G1 F1800 X82.345 Y122.226 E12.33744
G0 F3600 X82.508 Y122.106
G1 F1800 X83.49 Y123.088 E12.37382
G0 F3600 X84.015 Y123.33
G1 F1800 X84.849 Y123.881 E12.40008
G1 X86.249 Y124.715 E12.4429
G1 X87.99 Y125.608 E12.4943
G1 X89.954 Y126.441 E12.55035
G1 X91.678 Y127.033 E12.59825
G1 X93.613 Y127.554 E12.6509
G1 X95.714 Y127.958 E12.70711
G1 X97.947 Y128.211 E12.76615
G1 X100.001 Y128.285 E12.82015
G1 X102.179 Y128.201 E12.87742
G1 X104.211 Y127.97 E12.93115
G1 X106.35 Y127.563 E12.98836
G1 X108.355 Y127.023 E13.04291
G1 X110.447 Y126.286 E13.10119
G1 X112.407 Y125.418 E13.1575
G1 X114.25 Y124.433 E13.21241
G1 X115.814 Y123.45 E13.26094
G0 F3600 X115.891 Y123.53
G1 F1500 E6.76094
G0 F3600 X115.497 Y122.27
G0 X118.149 Y79.833
G0 X118.745 Y79.181
G0 X118.293 Y78.807
;TYPE:WALL-OUTER
G1 F1500 E13.26094
G1 F1800 X117.831 Y78.42 E13.29251
G1 X117.372 Y78.047 E13.3235
G1 X116.904 Y77.686 E13.35446
G1 X116.428 Y77.333 E13.3855
G1 X115.947 Y76.992 E13.41639
G1 X115.459 Y76.661 E13.44728
G1 X114.972 Y76.346 E13.47766
G1 X114.483 Y76.042 E13.50782
G1 X113.987 Y75.75 E13.53797
G1 X113.485 Y75.467 E13.56816
G1 X112.934 Y75.173 E13.60088
G1 X112.412 Y74.908 E13.63154
G1 X112.186 Y74.798 E13.64471
G1 X111.994 Y74.705 E13.65589
G1 X112.101 Y74.52 E13.66298
G1 X112.287 Y74.198 E13.68246
G1 X112.706 Y74.399 E13.70681
G1 X113.271 Y74.688 E13.74005
G1 X113.792 Y74.968 E13.77104
G1 X114.304 Y75.257 E13.80183
G1 X114.809 Y75.556 E13.83258
G1 X115.312 Y75.868 E13.86358
G1 X115.818 Y76.196 E13.89517
G1 X116.309 Y76.53 E13.92628
G1 X116.797 Y76.876 E13.95762
G1 X117.28 Y77.236 E13.98917
G1 X117.751 Y77.6 E14.02036
G1 X118.216 Y77.978 E14.05175
G1 X118.676 Y78.367 E14.08331
G1 X119.123 Y78.759 E14.11445
G1 X119.563 Y79.164 E14.14578
G1 X119.995 Y79.578 E14.17712
G1 X120.423 Y80.006 E14.20883
G1 X120.837 Y80.438 E14.24018
G1 X121.242 Y80.878 E14.2715
G1 X121.637 Y81.328 E14.30287
G1 X122.023 Y81.785 E14.33421
G1 X122.403 Y82.253 E14.36579
G1 X122.767 Y82.725 E14.39701
G1 X123.124 Y83.204 E14.4283
G1 X123.471 Y83.693 E14.45971
G1 X123.807 Y84.187 E14.49101
G1 X124.135 Y84.693 E14.5226
G1 X124.448 Y85.198 E14.55372
G1 X124.753 Y85.713 E14.58508
G1 X125.047 Y86.234 E14.61642
G1 X125.329 Y86.762 E14.64777
G1 X125.601 Y87.295 E14.67912
G1 X125.861 Y87.834 E14.71047
G1 X126.11 Y88.378 E14.74181
G1 X126.348 Y88.928 E14.7732
G1 X126.574 Y89.482 E14.80454
G1 X126.79 Y90.045 E14.83613
G1 X126.991 Y90.604 E14.86725
G1 X127.182 Y91.172 E14.89864
G1 X127.361 Y91.744 E14.93004
G1 X127.528 Y92.318 E14.96136
G1 X127.683 Y92.897 E14.99275
G1 X127.826 Y93.477 E15.02405
G1 X127.956 Y94.061 E15.05539
G1 X128.074 Y94.649 E15.08681
G1 X128.18 Y95.237 E15.1181
G1 X128.275 Y95.833 E15.14972
G1 X128.354 Y96.422 E15.18085
G1 X128.423 Y97.017 E15.21223
G1 X128.48 Y97.613 E15.24359
G1 X128.523 Y98.21 E15.27495
G1 X128.555 Y98.807 E15.30627
G1 X128.574 Y99.405 E15.33761
G1 X128.58 Y100.004 E15.36899
G1 X128.574 Y100.603 E15.40037
G1 X128.555 Y101.2 E15.43166
G1 X128.524 Y101.802 E15.46323
G1 X128.48 Y102.395 E15.49438
G1 X128.423 Y102.991 E15.52575
G1 X128.353 Y103.59 E15.55734
G1 X128.272 Y104.179 E15.58848
G1 X128.179 Y104.77 E15.61982
G1 X128.073 Y105.36 E15.65123
G1 X127.955 Y105.947 E15.68259
G1 X127.825 Y106.53 E15.71388
G1 X127.682 Y107.111 E15.74523
G1 X127.527 Y107.69 E15.77662
